!!!!SEGMENT: pl-cz--ii-121--009_klakowski--missa-in-dis-dona-nobis.krn
!!!cenid: 18xx:886
!!!COM: Klakowski
!!!COM-rismID: pe30098487
!!!CDT: ~1800-~1899
!!!CNT:
!!!OPR: Missa in Dis
!!!OTL: Dona nobis
!!!OMV: 009
!!!PDT:
!!!AGN: Sacred; Mass
!!!SMS-siglum: PL-CZ
!!!SMS-shelfmark: II-121
!!!SMS-shelfwork: 001-009 M
!!!SMS-variant:
!!!SMS-altvar:
!!!NIFC-rismSourceID: 300000590
!!!NIFC-rismChildID: 300000590
!!!NIFC-islandoraID: pl-cz:32114
!!!URL-pdf-islandora: https://repozytorium.nifc.pl/islandora/object/pl-cz%3A32114/datastream/PDF/view
!!!URL-scan:
!!!ONB-nifc: UWAGA: części Mszy: Kyrie, Gloria, Credo, Et incarnatus, Et resurrexit, Sanctus, Benedictus, Agnus Dei, Dona nobis
!!!OMD: Allegretto
!!!AIN: 1 alto 1 bass 2 clars 2 cor 1 organ 1 soprn 1 tenor 1 viola 2 violn
!!!key: E-
**kern	**fba	**dynam	**kern	**dynam	**kern	**dynam	**kern	**dynam	**kern	**text	**kern	**text	**kern	**text	**kern	**text	**kern	**dynam	**kern	**dynam	**kern	**dynam	**kern	**dynam
*part12	*part12	*part12	*part11	*part11	*part10	*part10	*part9	*part9	*part8	*part8	*part7	*part7	*part6	*part6	*part5	*part5	*part4	*part4	*part3	*part3	*part2	*part2	*part1	*part1
*staff12	*staff12	*	*staff11	*	*staff10	*	*staff9	*	*staff8	*staff8	*staff7	*staff7	*staff6	*staff6	*staff5	*staff5	*staff4	*	*staff3	*	*staff2	*	*staff1	*
*I"Organo	*	*	*I"Alto Viola	*	*I"Violino Secondo	*	*I"Violino Primo.	*	*I"Baſso,	*	*I"Tenore;	*	*I"Alto	*	*I"Canto	*	*I"Corno Secundo in Dis.	*	*I"Corno Primo in D.	*	*I"Clarinetto Secundo	*	*I"Clarinetto Primo in B	*
*I'org	*	*	*I'vla	*	*I'vl 2	*	*I'vl 1	*	*I'B	*	*I'T	*	*I'A	*	*I'S	*	*I'cor 2	*	*I'cor 1	*	*I'cl 2	*	*I'cl 1	*
*Iorgan	*	*	*Iviola	*	*Ivioln	*	*Ivioln	*	*Ibass	*	*Itenor	*	*Ialto	*	*Isoprn	*	*Icor	*	*Icor	*	*Iclars	*	*Iclars	*
*ICklav	*	*	*ICstr	*	*ICstr	*	*ICstr	*	*ICvox	*	*ICvox	*	*ICvox	*	*ICvox	*	*ICbras	*	*ICbras	*	*ICww	*	*ICww	*
*clefF4	*	*	*clefC3	*	*clefG2	*	*clefG2	*	*clefF4	*	*clefC4	*	*clefC3	*	*clefC1	*	*clefG2	*	*clefG2	*	*clefG2	*	*clefG2	*
*	*	*	*	*	*	*	*	*	*	*	*	*	*	*	*	*	*ITrd5c9	*	*ITrd5c9	*	*ITrd1c2	*	*ITrd1c2	*
*	*	*	*	*	*	*	*	*	*ok[b-e-]	*	*	*	*	*	*	*	*	*	*	*	*	*	*	*
*k[b-e-a-]	*	*	*k[b-e-a-]	*	*k[b-e-a-]	*	*k[b-e-a-]	*	*k[b-e-a-]	*	*k[b-e-a-]	*	*k[b-e-a-]	*	*k[b-e-a-]	*	*k[b-e-a-]	*	*k[b-e-a-]	*	*k[b-e-a-]	*	*k[b-e-a-]	*
*E-:	*	*	*E-:	*	*E-:	*	*E-:	*	*E-:	*	*E-:	*	*E-:	*	*E-:	*	*E-:	*	*E-:	*	*E-:	*	*E-:	*
*M4/4	*	*	*M4/4	*	*M4/4	*	*M4/4	*	*M4/4	*	*M4/4	*	*M4/4	*	*M4/4	*	*M4/4	*	*M4/4	*	*M4/4	*	*M4/4	*
*all\right	*	*	*all\right	*	*all\right	*	*all\right	*	*all\right	*	*all\right	*	*all\right	*	*all\right	*	*all\right	*	*all\right	*	*all\right	*	*all\right	*
=1	=1	=1	=1	=1	=1	=1	=1	=1	=1	=1	=1	=1	=1	=1	=1	=1	=1	=1	=1	=1	=1	=1	=1	=1
*2\right	*	*	*2\right	*	*2\right	*	*2\right	*	*2\right	*	*2\right	*	*2\right	*	*2\right	*	*	*	*	*	*	*	*	*
!LO:TX:a:i:t=Tutti	!	!	!LO:TX:a:i:t=allegretto	!	!LO:TX:a:t=Allegretto	!	!LO:TX:a:i:t=allegretto	!	!	!	!	!	!LO:TX:a:t=alle	!	!LO:TX:a:t=allo	!	!LO:TX:a:t=16	!	!LO:TX:a:i:t=allegretto	!	!LO:TX:a:t=3	!	!LO:TX:a:t=3	!
!LO:TX:a:i:t=Allegretto	!	!	!LO:N:vis=2.	!	!	!	!	!LO:DY:b:t=f.	!LO:TX:a:t=Allegretto	!	!LO:TX:a:t=Allegretto	!	!	!	!	!	!LO:TX:a:i:t=allegretto	!	!LO:TX:a:t=16:color=grey	!	!LO:TX:a:i:t=allegretto	!	!LO:TX:a:t=alle	!
2e-\	.	.	2e-\	.	2ee-\	.	2ee-\	f	2E-\	Do-	2e-\	Do-	2e-\	Do-	2ee-\	Do-	00r	.	00r	.	0r	.	0r	.
!	!	!	!LO:N:vis=2.	!	!LO:N:vis=2.	!	!	!	!LO:N:vis=2.	!	!	!	!LO:N:vis=2.	!	!LO:N:vis=2.	!	!	!	!	!	!	!	!	!
!	!	!	!LO:TX:t=P:problem=kreska taktowa po 2.	!	!LO:TX:t=P:problem=kreska taktowa po 2.	!	!	!	!	!	!	!	!LO:TX:t=P:problem=kreska taktowa po 2.	!	!LO:TX:t=P:problem=kreska taktowa po 2.	!	!	!	!	!	!	!	!	!
[2E-|>\	.	.	[y2e-\	.	[y2e-/	.	[2e-/	.	[2E-\	-na	2e-\	-na	[2e-\	-na	[y2ee-\	-na	.	.	.	.	.	.	.	.
=2	=2	=2	=2	=2	=2	=2	=2	=2	=2	=2	=2	=2	=2	=2	=2	=2	=2	=2	=2	=2	=2	=2	=2	=2
!LO:N:xstem:cue	!	!	!	!	!	!	!LO:N:xstem:cue	!	!	!	!	!	!	!	!	!	!	!	!	!	!	!	!	!
4E-\]	.	.	4e-\]yy	.	4e-/]yy	.	4e-/]	.	4E-\]yy	.	4e-\	.	4e-\]]	.	4ee-\]yy	.	.	.	.	.	.	.	.	.
4G|>\	.	.	4g\	.	4g/	.	4g|</	.	4G\	no-	4G\	no-	4g\	no-	4g\	no-	.	.	.	.	.	.	.	.
4A-|>\	.	.	4a-\	.	4a-/	.	4a-|</	.	4A-\	.	4A-\	.	4a-\	.	4a-\	.	.	.	.	.	.	.	.	.
4An|>\	.	.	4an\	.	4an/	.	4an|</	.	4An\	-biſ	4An\	-bis	4an\	-bis	4an\	-bis	.	.	.	.	.	.	.	.
=3	=3	=3	=3	=3	=3	=3	=3	=3	=3	=3	=3	=3	=3	=3	=3	=3	=3	=3	=3	=3	=3	=3	=3	=3
2B-|>\	.	.	2b-\	.	2b-\	.	2b-/	.	2B-\	pa-	2B-\	pa-	2b-\	pa-	2b-\	pa-	.	.	.	.	1r	.	1r	.
2BB-/	.	.	2B-/	.	[2B-/	.	2B-/	.	2BB-/	-cem	2B-\	-cem	2b-\	-cem	2b-\	-cem	.	.	.	.	.	.	.	.
=4	=4	=4	=4	=4	=4	=4	=4	=4	=4	=4	=4	=4	=4	=4	=4	=4	=4	=4	=4	=4	=4	=4	=4	=4
!LO:TX:a:i:t=Solo	!	!	!	!	!	!	!LO:N:xstem:cue	!	!	!	!	!	!	!	!	!	!	!	!	!	!LO:TX:a:t=Solo	!	!LO:TX:a:t=Solo	!
2B-\	.	.	2B-/	.	4B-/]]	.	4B-/	.	00r	.	00r	.	00r	.	00r	.	.	.	.	.	4r	.	4r	.
!	!	!	!	!	!	!	!	!LO:DY:b:t=p.	!	!	!	!	!	!	!	!	!	!	!	!	!	!	!	!LO:DY:b:rj
.	.	.	.	.	4d/	.	4f/	p	.	.	.	.	.	.	.	.	.	.	.	.	4dd\	.	4ff\	p
!LO:TX:b:t=pedale	!	!	!	!	!	!	!	!	!	!	!	!	!	!	!	!	!	!	!	!	!	!	!	!
2r	.	.	2r	.	4e-/	.	4g/	.	.	.	.	.	.	.	.	.	.	.	.	.	4ee-\	.	4gg\	.
!	!	!	!	!	!	!LO:DY:b	!	!	!	!	!	!	!	!	!	!	!	!	!	!	!	!	!	!
.	.	.	.	.	4f/	p	4a-/	.	.	.	.	.	.	.	.	.	.	.	.	.	4ff\	.	4aa-\	.
=5	=5	=5	=5	=5	=5	=5	=5	=5	=5	=5	=5	=5	=5	=5	=5	=5	=5	=5	=5	=5	=5	=5	=5	=5
2r	.	.	2r	.	4e-/	.	(4g/	.	.	.	.	.	.	.	.	.	00r	.	00r	.	(4ee-\	.	4gg\	.
.	.	.	.	.	4d/	.	4f/)	.	.	.	.	.	.	.	.	.	.	.	.	.	4dd\)	.	4ff\	.
*	*	*	*	*	*	*	*	*	*	*	*	*	*	*	*	*	*	*	*	*	*2\right	*	*2\right	*
!	!	!	!	!	!	!	!	!	!	!	!	!	!	!	!	!	!	!	!	!	!	!	!LO:N:vis=2.	!
2B-\	.	.	2B-/	.	[2d/	.	[2f/	.	.	.	.	.	.	.	.	.	.	.	.	.	[2dd\	.	[2ff\	.
!	!	!	!LO:LB:g=original	!	!	!	!	!	!	!	!	!	!	!	!	!	!	!	!	!	!	!	!LO:LB:g=original	!
=6	=6	=6	=6	=6	=6	=6	=6	=6	=6	=6	=6	=6	=6	=6	=6	=6	=6	=6	=6	=6	=6	=6	=6	=6
!	!	!	!	!	!	!	!LO:N:xstem:cue	!	!	!	!	!	!	!	!	!	!	!	!	!	!	!	!	!
2BB-/	.	.	2B-/	.	4d/]yy	.	4f/]	.	.	.	.	.	.	.	.	.	.	.	.	.	4dd\]	.	4ff\]yy	.
.	.	.	.	.	4e-/	.	4g/	.	.	.	.	.	.	.	.	.	.	.	.	.	4ee-\	.	4gg\	.
!	!	!	!	!	!	!	!	!	!	!	!	!	!	!	!	!	!	!	!	!	!LO:LB:g=original	!	!	!
=-	=-	=-	=-	=-	=-	=-	=-	=-	=-	=-	=-	=-	=-	=-	=-	=-	=-	=-	=-	=-	=-	=-	=-	=-
2r	.	.	2r	.	4f/	.	4a-/	.	.	.	.	.	.	.	.	.	.	.	.	.	4ff\	.	4aa-\	.
.	.	.	.	.	4g/	.	4b-/	.	.	.	.	.	.	.	.	.	.	.	.	.	4gg\	.	4bb-\	.
!	!	!	!	!	!LO:LB:g=original	!	!	!	!	!	!	!	!	!	!	!	!	!	!	!	!	!	!	!
=7	=7	=7	=7	=7	=7	=7	=7	=7	=7	=7	=7	=7	=7	=7	=7	=7	=7	=7	=7	=7	=7	=7	=7	=7
2r	.	.	2r	.	4f/	.	4a-/	.	.	.	.	.	.	.	.	.	.	.	.	.	4ff\	.	4aa-\	.
.	.	.	.	.	4e-/	.	4g/	.	.	.	.	.	.	.	.	.	.	.	.	.	4ee-\	.	4gg\	.
!	!	!	!	!	!LO:N:vis=2.	!	!	!	!	!	!	!	!	!	!	!	!	!	!	!	!	!	!	!
2E-\	.	.	2e-\	.	[y2e-/	.	[2g/	.	.	.	.	.	.	.	.	.	.	.	.	.	2ee-\	.	2gg\	.
=8	=8	=8	=8	=8	=8	=8	=8	=8	=8	=8	=8	=8	=8	=8	=8	=8	=8	=8	=8	=8	=8	=8	=8	=8
!LO:TX:a:t=Tut.	!	!LO:DY:b:t=f.	!	!	!	!	!	!	!	!	!	!	!	!	!	!	!	!	!	!	!LO:TX:a:t=4	!	!LO:TX:a:t=4	!
4E-\	.	f	4e-\	.	4e-/]yy	.	4g/]	.	00r	.	00r	.	00r	.	00r	.	.	.	.	.	00r	.	00r	.
!	!	!	!	!	!LO:N:vis=4.	!LO:DY:b:rj	!	!LO:DY:b	!	!	!	!	!	!	!	!	!	!	!	!	!	!	!	!
4B-|>\	.	.	4B-/	.	4b-\	f	4b-'\	f	.	.	.	.	.	.	.	.	.	.	.	.	.	.	.	.
4c|>\	.	.	4c\	.	4cc\	.	4cc'\	.	.	.	.	.	.	.	.	.	.	.	.	.	.	.	.	.
4d|>\	.	.	4d\	.	4dd\	.	4dd'\	.	.	.	.	.	.	.	.	.	.	.	.	.	.	.	.	.
=9	=9	=9	=9	=9	=9	=9	=9	=9	=9	=9	=9	=9	=9	=9	=9	=9	=9	=9	=9	=9	=9	=9	=9	=9
4e-|>\	.	.	4e-|>\	.	4ee-\	.	4ee-'\	.	.	.	.	.	.	.	.	.	00r	.	00r	.	.	.	.	.
4d|>\	.	.	4d|>\	.	4dd\	.	4dd'\	.	.	.	.	.	.	.	.	.	.	.	.	.	.	.	.	.
4c|>\	.	.	4c|>\	.	4cc\	.	4cc'\	.	.	.	.	.	.	.	.	.	.	.	.	.	.	.	.	.
4B-|>\	.	.	4B-|>\	.	4b-\	.	4b-'\	.	.	.	.	.	.	.	.	.	.	.	.	.	.	.	.	.
=10	=10	=10	=10	=10	=10	=10	=10	=10	=10	=10	=10	=10	=10	=10	=10	=10	=10	=10	=10	=10	=10	=10	=10	=10
4A-|>\	.	.	4A-|</	.	4a-/	.	4a-'\	.	.	.	.	.	.	.	.	.	.	.	.	.	.	.	.	.
4G|>\	.	.	4G|</	.	4g/	.	4g'\	.	.	.	.	.	.	.	.	.	.	.	.	.	.	.	.	.
!LO:LB:g=original	!	!	!	!	!	!	!	!	!	!	!	!	!	!	!	!	!	!	!	!	!	!	!	!
=-	=-	=-	=-	=-	=-	=-	=-	=-	=-	=-	=-	=-	=-	=-	=-	=-	=-	=-	=-	=-	=-	=-	=-	=-
4F\	.	.	4F|</	.	4f/	.	4f'\	.	.	.	.	.	.	.	.	.	.	.	.	.	.	.	.	.
4E-\	.	.	4E-|</	.	4e-/	.	4e-'\	.	.	.	.	.	.	.	.	.	.	.	.	.	.	.	.	.
=11	=11	=11	=11	=11	=11	=11	=11	=11	=11	=11	=11	=11	=11	=11	=11	=11	=11	=11	=11	=11	=11	=11	=11	=11
2B-\	.	.	2B-/	.	2b-\	.	2b-|>\	.	.	.	.	.	.	.	.	.	.	.	.	.	.	.	.	.
!LO:TX:a:i:t=Solo	!	!	!	!	!LO:N:vis=2.	!	!	!	!	!	!	!	!	!	!	!	!	!	!	!	!	!	!	!
2BB-/	.	.	2B-/	.	[y2B-/	.	[<2B-/	.	.	.	.	.	.	.	.	.	.	.	.	.	.	.	.	.
!	!	!	!	!	!	!	!LO:LB:g=original	!	!	!	!	!	!	!	!	!	!	!	!	!	!	!	!	!
=12	=12	=12	=12	=12	=12	=12	=12	=12	=12	=12	=12	=12	=12	=12	=12	=12	=12	=12	=12	=12	=12	=12	=12	=12
!LO:TX:b:t=pedale	!	!	!	!	!	!	!	!	!	!	!	!	!	!	!	!	!	!	!	!	!	!	!	!
2B-\	.	.	2B-/	.	4B-/]yy	.	4B-/]	.	00r	.	00r	.	00r	.	00r	.	.	.	.	.	4r	.	4r	.
!	!	!	!	!	!	!LO:DY:b:rj	!	!LO:DY:b	!	!	!	!	!	!	!	!	!	!	!	!	!	!	!	!
.	.	.	.	.	4d/	p	4f'/	p	.	.	.	.	.	.	.	.	.	.	.	.	4dd\	.	4ff\	.
2r	.	.	2r	.	(4e-/	.	4g'/	.	.	.	.	.	.	.	.	.	.	.	.	.	4ee-\	.	4gg\	.
.	.	.	.	.	4f/)	.	4a-|</	.	.	.	.	.	.	.	.	.	.	.	.	.	4ff\	.	4aa-\	.
=13	=13	=13	=13	=13	=13	=13	=13	=13	=13	=13	=13	=13	=13	=13	=13	=13	=13	=13	=13	=13	=13	=13	=13	=13
2r	.	.	2r	.	4e-/	.	(4g/	.	.	.	.	.	.	.	.	.	00r	.	00r	.	4ee-\	.	4gg\	.
.	.	.	.	.	4d/	.	4f/)	.	.	.	.	.	.	.	.	.	.	.	.	.	4dd\	.	4ff\	.
!	!	!	!	!LO:DY:b	!LO:N:vis=2.	!	!	!	!	!	!	!	!	!	!	!	!	!	!	!	!	!	!LO:N:vis=2.	!
2B-\	.	.	2B-/	p	[2d/	.	[2f/	.	.	.	.	.	.	.	.	.	.	.	.	.	[2dd\	.	[2ff\	.
=14	=14	=14	=14	=14	=14	=14	=14	=14	=14	=14	=14	=14	=14	=14	=14	=14	=14	=14	=14	=14	=14	=14	=14	=14
!	!	!	!	!	!	!	!LO:N:xstem:cue	!	!	!	!	!	!	!	!	!	!	!	!	!	!	!	!	!
2BB-/	.	.	2B-/	.	4d/]yy	.	4f/]	.	.	.	.	.	.	.	.	.	.	.	.	.	4dd\]	.	4ff\]yy	.
.	.	.	.	.	4e-/	.	4g|</	.	.	.	.	.	.	.	.	.	.	.	.	.	4ee-\	.	4gg\	.
2r	.	.	2r	.	4f/	.	4a-|</	.	.	.	.	.	.	.	.	.	.	.	.	.	4ff\	.	4aa-\	.
.	.	.	.	.	4g/	.	4b-|</	.	.	.	.	.	.	.	.	.	.	.	.	.	4gg\	.	4bb-\	.
=15	=15	=15	=15	=15	=15	=15	=15	=15	=15	=15	=15	=15	=15	=15	=15	=15	=15	=15	=15	=15	=15	=15	=15	=15
2r	.	.	2r	.	(4f/	.	(4a-/	.	.	.	.	.	.	.	.	.	.	.	.	.	4ff\	.	4aa-\	.
.	.	.	.	.	4e-/)	.	4g/)	.	.	.	.	.	.	.	.	.	.	.	.	.	4ee-\	.	4gg\	.
!	!	!	!	!	!LO:N:vis=2.	!	!	!	!	!	!	!	!	!	!	!	!	!	!	!	!	!	!	!
2E-\	.	.	2e-\	.	2e-/	.	[<2g/	.	.	.	.	.	.	.	.	.	.	.	.	.	2ee-\	.	2gg\	.
!	!	!	!LO:LB:g=original	!	!LO:LB:g=original	!	!	!	!	!	!	!	!	!	!	!	!	!	!	!	!	!	!LO:LB:g=original	!
=16	=16	=16	=16	=16	=16	=16	=16	=16	=16	=16	=16	=16	=16	=16	=16	=16	=16	=16	=16	=16	=16	=16	=16	=16
!	!	!	!	!	!	!	!LO:N:xstem:cue	!	!	!	!	!	!	!	!	!	!	!	!	!	!LO:TX:a:t=1	!	!LO:TX:a:t=1	!
2EE-/	.	.	2E-/	.	2e-/	.	4g/]	.	1r	.	1r	.	1r	.	1r	.	.	.	.	.	1r	.	1r	.
.	.	.	.	.	.	.	4b-|>\	.	.	.	.	.	.	.	.	.	.	.	.	.	.	.	.	.
!	!	!	!	!	!	!	!	!LO:DY:b:t=f.	!	!	!	!	!	!	!	!	!	!	!	!	!	!	!	!
2r	.	.	2r	.	2r	.	4ee-|>\	f	.	.	.	.	.	.	.	.	.	.	.	.	.	.	.	.
.	.	.	.	.	.	.	4gg|>\	.	.	.	.	.	.	.	.	.	.	.	.	.	.	.	.	.
!	!	!	!	!	!	!	!	!	!	!	!	!	!	!	!	!	!	!	!	!	!LO:LB:g=original	!	!	!
=17	=17	=17	=17	=17	=17	=17	=17	=17	=17	=17	=17	=17	=17	=17	=17	=17	=17	=17	=17	=17	=17	=17	=17	=17
*	*	*	*tremolo	*	*tremolo	*	*	*	*	*	*	*	*	*	*	*	*	*	*	*	*	*	*	*
!LO:TX:a:i:t=Tutti	!	!LO:DY:b	!	!LO:DY:b	!	!LO:DY:b	!	!	!	!	!	!	!	!	!	!	!	!LO:DY:b:rj	!	!LO:DY:b	!	!LO:DY:b	!	!LO:DY:b
4E-\	.	f	8e-\L	f	8g/L	f	1b- 1bb-	.	2.E-\	Do-	2.e-\	Do-	2.b-\	Do-	2.gg\	Do-	1G	f	1e-	f	1ee-	f	1gg	f
.	.	.	8e-\	.	8g/	.	.	.	.	.	.	.	.	.	.	.	.	.	.	.	.	.	.	.
4E-\	.	.	8e-\	.	8g/	.	.	.	.	.	.	.	.	.	.	.	.	.	.	.	.	.	.	.
.	.	.	8e-\J	.	8g/J	.	.	.	.	.	.	.	.	.	.	.	.	.	.	.	.	.	.	.
4G\	6	.	8e-\L	.	8b-\L	.	.	.	.	.	.	.	.	.	.	.	.	.	.	.	.	.	.	.
.	.	.	8e-\	.	8b-\	.	.	.	.	.	.	.	.	.	.	.	.	.	.	.	.	.	.	.
4G\	.	.	8e-\	.	8b-\	.	.	.	4E-\	-na	4e-\	-na	4b-\	-na	4gg\	-na	.	.	.	.	.	.	.	.
.	.	.	8e-\J	.	8b-\J	.	.	.	.	.	.	.	.	.	.	.	.	.	.	.	.	.	.	.
!	!	!	!	!	!	!	!	!	!	!	!LO:LB:g=original	!	!LO:LB:g=original	!	!	!	!	!	!	!	!	!	!	!
=18	=18	=18	=18	=18	=18	=18	=18	=18	=18	=18	=18	=18	=18	=18	=18	=18	=18	=18	=18	=18	=18	=18	=18	=18
4E-\	.	.	8e-\L	.	8g/L	.	2gg\	.	2E-\	no-	2e-\	no-	2b-\	no-	2gg\	no-	1G	.	1e-	.	1ee-	.	1gg	.
.	.	.	8e-\	.	8g/	.	.	.	.	.	.	.	.	.	.	.	.	.	.	.	.	.	.	.
4E-\	.	.	8e-\	.	8g/	.	.	.	.	.	.	.	.	.	.	.	.	.	.	.	.	.	.	.
.	.	.	8e-\J	.	8g/J	.	.	.	.	.	.	.	.	.	.	.	.	.	.	.	.	.	.	.
4G\	.	.	8e-\L	.	8b-/L	.	2ee-\	.	2E-\	-bis	2e-\	-bis	2b-\	-bis	2gg\	-bis	.	.	.	.	.	.	.	.
.	.	.	8e-\	.	8b-/	.	.	.	.	.	.	.	.	.	.	.	.	.	.	.	.	.	.	.
4G\	.	.	8e-\	.	8b-/	.	.	.	.	.	.	.	.	.	.	.	.	.	.	.	.	.	.	.
.	.	.	8e-\J	.	8b-/J	.	.	.	.	.	.	.	.	.	.	.	.	.	.	.	.	.	.	.
=19	=19	=19	=19	=19	=19	=19	=19	=19	=19	=19	=19	=19	=19	=19	=19	=19	=19	=19	=19	=19	=19	=19	=19	=19
4D\	6	.	8B-/L	.	8f/L	.	4dd\	.	1B-	pa-	1d	pa-	[1b-	pa-	1ff	pa-	1BB-	.	1B-	.	1dd	.	1ff	.
.	.	.	8B-/	.	8f/	.	.	.	.	.	.	.	.	.	.	.	.	.	.	.	.	.	.	.
4D\	.	.	8B-/	.	8f/	.	4B-|</	.	.	.	.	.	.	.	.	.	.	.	.	.	.	.	.	.
.	.	.	8B-/J	.	8f/J	.	.	.	.	.	.	.	.	.	.	.	.	.	.	.	.	.	.	.
4D\	.	.	8B-/L	.	8f/L	.	4d|</	.	.	.	.	.	.	.	.	.	.	.	.	.	.	.	.	.
.	.	.	8B-/	.	8f/	.	.	.	.	.	.	.	.	.	.	.	.	.	.	.	.	.	.	.
4D\	.	.	8B-/	.	8f/	.	4f|</	.	.	.	.	.	.	.	.	.	.	.	.	.	.	.	.	.
.	.	.	8B-/J	.	8f/J	.	.	.	.	.	.	.	.	.	.	.	.	.	.	.	.	.	.	.
=20	=20	=20	=20	=20	=20	=20	=20	=20	=20	=20	=20	=20	=20	=20	=20	=20	=20	=20	=20	=20	=20	=20	=20	=20
4BB-/	.	.	8f\L	.	8d/L	.	4b-|>\	.	2BB-/	.	2d\	-cem	2b-\]	.	2ff\	.	1B-	.	1f	.	2b-\	.	2dd\	.
.	.	.	8f\	.	8d/	.	.	.	.	.	.	.	.	.	.	.	.	.	.	.	.	.	.	.
4BB-/	.	.	8f\	.	8d/	.	4dd|>\	.	.	.	.	.	.	.	.	.	.	.	.	.	.	.	.	.
.	.	.	8f\J	.	8d/J	.	.	.	.	.	.	.	.	.	.	.	.	.	.	.	.	.	.	.
4D/	6 5	.	8f\L	.	8f/L	.	4ff|>\	.	2D/	-cem	2d\	.	2b-\	-cem	2ff\	-cem	.	.	.	.	2dd\	.	2ff\	.
.	.	.	8f\	.	8f/	.	.	.	.	.	.	.	.	.	.	.	.	.	.	.	.	.	.	.
4D/	.	.	8f\	.	8f/	.	4aa-|>\	.	.	.	.	.	.	.	.	.	.	.	.	.	.	.	.	.
.	.	.	8f\J	.	8f/J	.	.	.	.	.	.	.	.	.	.	.	.	.	.	.	.	.	.	.
!LO:LB:g=original	!	!	!	!	!	!	!	!	!	!	!	!	!	!	!	!	!	!	!	!	!	!	!	!
=21	=21	=21	=21	=21	=21	=21	=21	=21	=21	=21	=21	=21	=21	=21	=21	=21	=21	=21	=21	=21	=21	=21	=21	=21
4E-\	5_ 3_	.	8e-\L	.	8g/L	.	(1b- 1bb-	.	2.E-\	do-	2.e-\	Do-	2.b-\	Do-	2.gg\	Do-	1G	.	1e-	.	1ee-	.	1gg	.
.	.	.	8e-\	.	8g/	.	.	.	.	.	.	.	.	.	.	.	.	.	.	.	.	.	.	.
4E-\	x x	.	8e-\	.	8g/	.	.	.	.	.	.	.	.	.	.	.	.	.	.	.	.	.	.	.
.	.	.	8e-\J	.	8g/J	.	.	.	.	.	.	.	.	.	.	.	.	.	.	.	.	.	.	.
4G\	.	.	8e-\L	.	8b-/L	.	.	.	.	.	.	.	.	.	.	.	.	.	.	.	.	.	.	.
.	.	.	8e-\	.	8b-/	.	.	.	.	.	.	.	.	.	.	.	.	.	.	.	.	.	.	.
4G\	.	.	8e-\	.	8b-/	.	.	.	4E-\	-na	4e-\	-na	4b-\	-na	4gg\	-na	.	.	.	.	.	.	.	.
.	.	.	8e-\J	.	8b-/J	.	.	.	.	.	.	.	.	.	.	.	.	.	.	.	.	.	.	.
!	!	!	!	!	!	!	!	!	!LO:LB:g=original	!	!	!	!	!	!	!	!	!	!	!	!	!	!	!
=22	=22	=22	=22	=22	=22	=22	=22	=22	=22	=22	=22	=22	=22	=22	=22	=22	=22	=22	=22	=22	=22	=22	=22	=22
!	!	!	!	!	!	!	!	!	!	!	!	!	!	!	!	!	!	!	!	!	!	!	!LO:N:vis=1.	!
4E-\	.	.	8e-\L	.	8a-/L	.	4gg\)	.	2E-\	no-	2e-\	no-	2b-\	no-	2gg\	no-	1G	.	1e-	.	1ee-	.	1gg	.
.	.	.	8e-\	.	8a-/	.	.	.	.	.	.	.	.	.	.	.	.	.	.	.	.	.	.	.
4E-\	.	.	8e-\	.	8a-/	.	(4gg\	.	.	.	.	.	.	.	.	.	.	.	.	.	.	.	.	.
.	.	.	8e-\J	.	8a-/J	.	.	.	.	.	.	.	.	.	.	.	.	.	.	.	.	.	.	.
4G\	.	.	8e-\L	.	8b-/L	.	4ee-\)	.	2E-\	-bis	2e-\	-bis	2b-\	-bis	2gg\	-bis	.	.	.	.	.	.	.	.
.	.	.	8e-\	.	8b-/	.	.	.	.	.	.	.	.	.	.	.	.	.	.	.	.	.	.	.
4G\	.	.	8e-\	.	8b-/	.	(4ee-\	.	.	.	.	.	.	.	.	.	.	.	.	.	.	.	.	.
.	.	.	8e-\J	.	8b-/J	.	.	.	.	.	.	.	.	.	.	.	.	.	.	.	.	.	.	.
!	!	!	!	!	!	!	!	!	!	!	!	!	!	!	!LO:LB:g=original	!	!	!	!	!	!	!	!	!
=23	=23	=23	=23	=23	=23	=23	=23	=23	=23	=23	=23	=23	=23	=23	=23	=23	=23	=23	=23	=23	=23	=23	=23	=23
4D\	6	.	8B-/L	.	8f/L	.	4dd\)	.	1B-	pa-	1d	pa-	1b-	pa-	1ff	pa-	1BB-	.	1B-	.	1dd	.	1ff	.
.	.	.	8B-/	.	8f/	.	.	.	.	.	.	.	.	.	.	.	.	.	.	.	.	.	.	.
4D\	.	.	8B-/	.	8f/	.	4B-|</	.	.	.	.	.	.	.	.	.	.	.	.	.	.	.	.	.
.	.	.	8B-/J	.	8f/J	.	.	.	.	.	.	.	.	.	.	.	.	.	.	.	.	.	.	.
4D\	.	.	8B-/L	.	8f/L	.	4d|</	.	.	.	.	.	.	.	.	.	.	.	.	.	.	.	.	.
.	.	.	8B-/	.	8f/	.	.	.	.	.	.	.	.	.	.	.	.	.	.	.	.	.	.	.
4D\	.	.	8B-/	.	8f/	.	4f|</	.	.	.	.	.	.	.	.	.	.	.	.	.	.	.	.	.
.	.	.	8B-/J	.	8f/J	.	.	.	.	.	.	.	.	.	.	.	.	.	.	.	.	.	.	.
!	!	!	!	!	!	!	!LO:LB:g=original	!	!	!	!	!	!	!	!	!	!	!	!	!	!	!	!	!
=24	=24	=24	=24	=24	=24	=24	=24	=24	=24	=24	=24	=24	=24	=24	=24	=24	=24	=24	=24	=24	=24	=24	=24	=24
4BB-/	7	.	8f\L	.	8d/L	.	4b-\	.	2BB-/	.	1d	-cem	1b-	-cem	1ff	-cem	1B-	.	1f	.	2b-\	.	2dd\	.
.	.	.	8f\	.	8d/	.	.	.	.	.	.	.	.	.	.	.	.	.	.	.	.	.	.	.
4BB-/	.	.	8f\	.	8d/	.	4dd\	.	.	.	.	.	.	.	.	.	.	.	.	.	.	.	.	.
.	.	.	8f\J	.	8d/J	.	.	.	.	.	.	.	.	.	.	.	.	.	.	.	.	.	.	.
4D/	6 5	.	8f\L	.	8f/L	.	4ff\	.	2D/	-cem	.	.	.	.	.	.	.	.	.	.	2dd\	.	2ff\	.
.	.	.	8f\	.	8f/	.	.	.	.	.	.	.	.	.	.	.	.	.	.	.	.	.	.	.
4D/	.	.	8f\	.	8f/	.	4aa-\	.	.	.	.	.	.	.	.	.	.	.	.	.	.	.	.	.
.	.	.	8f\J	.	8f/J	.	.	.	.	.	.	.	.	.	.	.	.	.	.	.	.	.	.	.
*	*	*	*Xtremolo	*	*Xtremolo	*	*	*	*	*	*	*	*	*	*	*	*	*	*	*	*	*	*	*
!	!	!	!LO:LB:g=original	!	!	!	!	!	!	!	!	!	!	!	!	!	!LO:LB:g=original	!	!	!	!	!	!	!
=25	=25	=25	=25	=25	=25	=25	=25	=25	=25	=25	=25	=25	=25	=25	=25	=25	=25	=25	=25	=25	=25	=25	=25	=25
4E-\	5_ 3_	.	1e-	.	2g/	.	(1bb-	.	4E-\	Do-	2.e-\	Do-	2.b-\	Do-	2.gg\	Do-	1G	.	1e-	.	1ee-	.	1gg	.
4G\	.	.	.	.	.	.	.	.	4G\	.	.	.	.	.	.	.	.	.	.	.	.	.	.	.
4B-\	.	.	.	.	2g/	.	.	.	4B-\	.	.	.	.	.	.	.	.	.	.	.	.	.	.	.
4G\	x x	.	.	.	.	.	.	.	4G\	-na	4e-\	-na	4b-\	-na	4gg\	-na	.	.	.	.	.	.	.	.
!	!	!	!	!	!LO:LB:g=original	!	!	!	!	!	!LO:LB:g=original	!	!LO:LB:g=original	!	!	!	!	!	!LO:LB:g=original	!	!	!	!	!
=26	=26	=26	=26	=26	=26	=26	=26	=26	=26	=26	=26	=26	=26	=26	=26	=26	=26	=26	=26	=26	=26	=26	=26	=26
1E-	.	.	1e-	.	1g	.	4gg\)	.	2E-\	no-	2e-\	no-	2b-\	no-	2gg\	no-	1e-	.	1g	.	1ee-	.	1gg	.
.	.	.	.	.	.	.	4ee-|>\	.	.	.	.	.	.	.	.	.	.	.	.	.	.	.	.	.
.	.	.	.	.	.	.	4gg|>\	.	2E-\	-biſ	2e-\	-bis	2b-\	-bis	2gg\	-biſ	.	.	.	.	.	.	.	.
.	.	.	.	.	.	.	4bb-|>\	.	.	.	.	.	.	.	.	.	.	.	.	.	.	.	.	.
!	!	!	!	!	!	!	!	!	!	!	!	!	!	!	!	!	!	!	!	!	!	!	!LO:LB:g=original	!
=27	=27	=27	=27	=27	=27	=27	=27	=27	=27	=27	=27	=27	=27	=27	=27	=27	=27	=27	=27	=27	=27	=27	=27	=27
4F\	5_ 3_	.	1f	.	2a-/	.	(1ccc	.	4F\	pa-	1f	pa-	1cc	pa-	1aa-	pa-	1f	.	1a-	.	1ff	.	1aa-	.
4A-\	.	.	.	.	.	.	.	.	4A-\	.	.	.	.	.	.	.	.	.	.	.	.	.	.	.
4c\	.	.	.	.	2b-/	.	.	.	4c\	.	.	.	.	.	.	.	.	.	.	.	.	.	.	.
4A-\	x x	.	.	.	.	.	.	.	4A-\	.	.	.	.	.	.	.	.	.	.	.	.	.	.	.
!	!	!	!	!	!	!	!	!	!	!	!	!	!	!	!	!	!	!	!	!	!LO:LB:g=original	!	!	!
=28	=28	=28	=28	=28	=28	=28	=28	=28	=28	=28	=28	=28	=28	=28	=28	=28	=28	=28	=28	=28	=28	=28	=28	=28
1F	5 n	.	1f	.	1an	.	4aan\)	.	1F	-cem	1f	-cem	1cc	-cem	1aan	-cem	1f	.	1anX	.	1ff	.	1aa	.
.	.	.	.	.	.	.	4ff|>\	.	.	.	.	.	.	.	.	.	.	.	.	.	.	.	.	.
.	.	.	.	.	.	.	4aa|>\	.	.	.	.	.	.	.	.	.	.	.	.	.	.	.	.	.
.	.	.	.	.	.	.	4ccc|>\	.	.	.	.	.	.	.	.	.	.	.	.	.	.	.	.	.
=29	=29	=29	=29	=29	=29	=29	=29	=29	=29	=29	=29	=29	=29	=29	=29	=29	=29	=29	=29	=29	=29	=29	=29	=29
!	!	!	!	!	!	!	!	!	!LO:SIC:v:s=4F\	!	!	!	!	!	!	!	!	!	!	!	!	!	!	!
4F\	6 4	.	1f	.	2b-\	.	[1ddd	.	4G\	pa-	1f	pa-	1dd	pa-	1bb-	pa-	1f	.	1b-	.	1dd	.	1ff	.
4B-\	.	.	.	.	.	.	.	.	4B-\	.	.	.	.	.	.	.	.	.	.	.	.	.	.	.
4d\	.	.	.	.	2b-\	.	.	.	4d\	.	.	.	.	.	.	.	.	.	.	.	.	.	.	.
4B-\	.	.	.	.	.	.	.	.	4B-\	.	.	.	.	.	.	.	.	.	.	.	.	.	.	.
=30	=30	=30	=30	=30	=30	=30	=30	=30	=30	=30	=30	=30	=30	=30	=30	=30	=30	=30	=30	=30	=30	=30	=30	=30
*	*	*	*	*	*	*	*	*	*	*	*	*	*	*	*	*	*	*	*2\right	*	*	*	*	*
1F	65	.	1f	.	(4b-\	.	4ddd\]	.	1F	.	1f	.	2dd\	.	2bb-\	.	1g	.	2b-\	.	2dd\	.	1ff	.
.	.	.	.	.	4dd\)	.	4bb-|>\	.	.	.	.	.	.	.	.	.	.	.	.	.	.	.	.	.
.	.	.	.	.	4ff>|\	.	[2ccc\	.	.	.	.	.	2cc\	.	2aan\	.	.	.	2aX\	.	2cc\	.	.	.
.	.	.	.	.	4aan|>\	.	.	.	.	.	.	.	.	.	.	.	.	.	.	.	.	.	.	.
=31	=31	=31	=31	=31	=31	=31	=31	=31	=31	=31	=31	=31	=31	=31	=31	=31	=31	=31	=31	=31	=31	=31	=31	=31
!	!	!	!	!	!	!	!	!	!	!	!	!	!	!	!LO:SIC:v:s=2aan\	!	!	!	!LO:SIC:v:s=2anX\	!	!	!	!	!
1En	65	.	1en	.	4an/	.	4ccc\]	.	1En	.	1en	.	2cc\	.	2aa-\	.	1r	.	2a-X\	.	2cc\	.	1eenX	.
.	.	.	.	.	4cc/	.	4aan|>\	.	.	.	.	.	.	.	.	.	.	.	.	.	.	.	.	.
.	.	.	.	.	4een\	.	[2bb-\	.	.	.	.	.	2b-\	.	2gg\	.	.	.	2g\	.	2b-\	.	.	.
.	.	.	.	.	4gg\	.	.	.	.	.	.	.	.	.	.	.	.	.	.	.	.	.	.	.
!	!	!	!	!	!	!	!	!	!LO:LB:g=original	!	!	!	!	!	!	!	!	!	!	!	!	!	!	!
=32	=32	=32	=32	=32	=32	=32	=32	=32	=32	=32	=32	=32	=32	=32	=32	=32	=32	=32	=32	=32	=32	=32	=32	=32
1D	6	.	1d	.	4g|</	.	4bb-\]	.	1D	.	1d	.	2b-\	.	2gg\	.	1d	.	2g\	.	2b-\	.	1dd	.
.	n5	.	.	.	4b-|</	.	4gg\	.	.	.	.	.	.	.	.	.	.	.	.	.	.	.	.	.
.	.	.	.	.	(4dd\	.	[2aan\	.	.	.	.	.	2an\	.	2ff\	.	.	.	2f\	.	2a\	.	.	.
.	.	.	.	.	4ff\)	.	.	.	.	.	.	.	.	.	.	.	.	.	.	.	.	.	.	.
!LO:LB:g=original	!	!	!	!	!	!	!	!	!	!	!	!	!	!	!	!	!	!	!	!	!	!	!	!
=33	=33	=33	=33	=33	=33	=33	=33	=33	=33	=33	=33	=33	=33	=33	=33	=33	=33	=33	=33	=33	=33	=33	=33	=33
!	!	!	!	!	!	!	!	!	!	!	!	!	!LO:SIC:v:s=2an\	!	!	!	!	!	!	!	!	!	!	!
1C	6\	.	1c	.	4f/	.	4aa\]	.	1C	.	1c	.	2a-\	.	2ff\	.	1r	.	1r	.	1cc	.	2aa\	.
.	5	.	.	.	4an/	.	4ff|>\	.	.	.	.	.	.	.	.	.	.	.	.	.	.	.	.	.
.	.	.	.	.	4cc\	.	[2gg\	.	.	.	.	.	2g\	.	2een\	.	.	.	.	.	.	.	2gg\	.
.	.	.	.	.	4een\	.	.	.	.	.	.	.	.	.	.	.	.	.	.	.	.	.	.	.
!	!	!	!	!	!	!	!	!	!	!	!	!	!LO:LB:g=original	!	!	!	!	!	!	!	!	!	!	!
=34	=34	=34	=34	=34	=34	=34	=34	=34	=34	=34	=34	=34	=34	=34	=34	=34	=34	=34	=34	=34	=34	=34	=34	=34
*	*	*	*tremolo	*	*	*	*	*	*	*	*	*	*	*	*	*	*	*	*	*	*	*	*	*
4En\	6_ 5_	.	8c\L	.	4b-/	.	4gg\]	.	4En\	.	1c	.	2g\	.	2ee-\	.	2r	.	2r	.	2b-\	.	2gg\	.
.	.	.	8c\	.	.	.	.	.	.	.	.	.	.	.	.	.	.	.	.	.	.	.	.	.
4C\	.	.	8c\	.	4g/	.	4een|>\	.	4C\	.	.	.	.	.	.	.	.	.	.	.	.	.	.	.
.	.	.	8c\J	.	.	.	.	.	.	.	.	.	.	.	.	.	.	.	.	.	.	.	.	.
*	*	*	*	*	*	*	*	*	*	*	*	*	*	*	*	*	*2\right	*	*	*	*	*	*	*
!	!	!	!	!	!	!	!	!	!	!	!	!	!LO:SIC:v:s=2an\	!	!	!	!	!	!	!	!	!	!	!
4F\	5 n	.	8c\L	.	2cc\	.	2ff\	.	4F\	.	.	.	2a-\	.	2ff\	.	2f\	.	2f\	.	2a\	.	2ff\	.
.	.	.	8c\	.	.	.	.	.	.	.	.	.	.	.	.	.	.	.	.	.	.	.	.	.
4An\	.	.	8c\	.	.	.	.	.	4An\	-cem	.	.	.	.	.	.	.	.	.	.	.	.	.	.
.	.	.	8c\J	.	.	.	.	.	.	.	.	.	.	.	.	.	.	.	.	.	.	.	.	.
=35	=35	=35	=35	=35	=35	=35	=35	=35	=35	=35	=35	=35	=35	=35	=35	=35	=35	=35	=35	=35	=35	=35	=35	=35
4B-\	6	.	8c\L	.	2cc\	.	(4gg\	.	4B-\	pa-	1c	.	1b-	.	1gg	.	2g\	.	2b-\	.	1b-	.	1gg	.
.	.	.	8c\	.	.	.	.	.	.	.	.	.	.	.	.	.	.	.	.	.	.	.	.	.
4G\	.	.	8c\	.	.	.	4bb-\)	.	4G\	.	.	.	.	.	.	.	.	.	.	.	.	.	.	.
.	.	.	8c\J	.	.	.	.	.	.	.	.	.	.	.	.	.	.	.	.	.	.	.	.	.
4c\	4	.	8c\L	.	4g/	.	(4een\	.	4c\	.	.	.	.	.	.	.	2g\	.	2b-\	.	.	.	.	.
.	.	.	8c\	.	.	.	.	.	.	.	.	.	.	.	.	.	.	.	.	.	.	.	.	.
4C/	3	.	8c\	.	4fn/	.	4gg\)	.	4C/	.	.	.	.	.	.	.	.	.	.	.	.	.	.	.
.	.	.	8c\J	.	.	.	.	.	.	.	.	.	.	.	.	.	.	.	.	.	.	.	.	.
!	!	!	!	!	!LO:LB:g=original	!	!LO:LB:g=original	!	!	!	!	!	!	!	!	!	!	!	!	!	!	!	!LO:LB:g=original	!
=36	=36	=36	=36	=36	=36	=36	=36	=36	=36	=36	=36	=36	=36	=36	=36	=36	=36	=36	=36	=36	=36	=36	=36	=36
!	!	!	!LO:TX:t=P:t.36-37:problem	!	!	!	!	!	!LO:TX:t=P:problem=t. 36-37 zapisane jako repetycja	!	!	!	!	!	!	!	!	!	!	!	!	!	!	!
!	!	!	!	!	!	!	!	!	!LO:SIC:v:s=4F\	!	!	!	!	!	!	!	!	!	!	!	!	!	!	!
2F\	6	.	8c\L	.	4c/	.	4ff\	.	4En\	.	1c	-cem	1a-	-cem	1ff	-cem	1f	.	1anX	.	1a	.	1ff	.
.	.	.	8c\	.	.	.	.	.	.	.	.	.	.	.	.	.	.	.	.	.	.	.	.	.
.	.	.	8c\	.	4f/	.	4cc\	.	4C\	.	.	.	.	.	.	.	.	.	.	.	.	.	.	.
.	.	.	8c\J	.	.	.	.	.	.	.	.	.	.	.	.	.	.	.	.	.	.	.	.	.
.	.	.	.	.	.	.	8qqbb-/	.	.	.	.	.	.	.	.	.	.	.	.	.	.	.	.	.
4F\	.	.	8c\L	.	2cc\	.	4aan\	.	4F\	.	.	.	.	.	.	.	.	.	.	.	.	.	.	.
.	.	.	8c\	.	.	.	.	.	.	.	.	.	.	.	.	.	.	.	.	.	.	.	.	.
4An\	.	.	8c\	.	.	.	(8gg\L	.	4An\	-cem	.	.	.	.	.	.	.	.	.	.	.	.	.	.
.	.	.	8c\J	.	.	.	8ff\J)	.	.	.	.	.	.	.	.	.	.	.	.	.	.	.	.	.
!	!	!	!	!	!	!	!	!	!	!	!	!	!	!	!LO:LB:g=original	!	!	!	!LO:LB:g=original	!	!LO:LB:g=original	!	!	!
=37	=37	=37	=37	=37	=37	=37	=37	=37	=37	=37	=37	=37	=37	=37	=37	=37	=37	=37	=37	=37	=37	=37	=37	=37
4B-\	6	.	8c\L	.	2cc\	.	(4gg\	.	4B-\	pa-	1c	pa-	1b-	pa-	1gg	pa-	1g	.	1b-	.	1b-	.	1gg	.
.	.	.	8c\	.	.	.	.	.	.	.	.	.	.	.	.	.	.	.	.	.	.	.	.	.
4G\	.	.	8c\	.	.	.	4bb-\)	.	4G\	.	.	.	.	.	.	.	.	.	.	.	.	.	.	.
.	.	.	8c\J	.	.	.	.	.	.	.	.	.	.	.	.	.	.	.	.	.	.	.	.	.
4c\	4	.	8c\L	.	4g/	.	(4een\	.	4c\	.	.	.	.	.	.	.	.	.	.	.	.	.	.	.
.	.	.	8c\	.	.	.	.	.	.	.	.	.	.	.	.	.	.	.	.	.	.	.	.	.
4C/	3	.	8c\	.	4en/	.	4gg\)	.	4C/	.	.	.	.	.	.	.	.	.	.	.	.	.	.	.
.	.	.	8c\J	.	.	.	.	.	.	.	.	.	.	.	.	.	.	.	.	.	.	.	.	.
!	!	!	!	!	!	!	!	!	!	!	!	!	!	!	!	!	!LO:LB:g=original	!	!	!	!	!	!	!
=38	=38	=38	=38	=38	=38	=38	=38	=38	=38	=38	=38	=38	=38	=38	=38	=38	=38	=38	=38	=38	=38	=38	=38	=38
!	!	!	!	!	!	!	!	!	!	!	!	!	!LO:SIC:v:s=2an\	!	!	!	!	!	!	!	!	!	!	!
2F\	.	.	8c\L	.	2c/	.	2ff\	.	2F\	-cem	2c\	-cem	2a-\	-cem	2ff\	-cem	2f\	.	2aX\	.	2aX\	.	2ff\	.
.	.	.	8c\	.	.	.	.	.	.	.	.	.	.	.	.	.	.	.	.	.	.	.	.	.
.	.	.	8c\	.	.	.	.	.	.	.	.	.	.	.	.	.	.	.	.	.	.	.	.	.
.	.	.	8c\J	.	.	.	.	.	.	.	.	.	.	.	.	.	.	.	.	.	.	.	.	.
*	*	*	*	*	*	*	*	*	*	*	*	*	*	*	*	*ij	*	*	*	*	*	*	*	*
!	!	!	!	!	!	!	!	!	!	!	!	!	!LO:SIC:v:s=2an\	!	!	!	!	!	!	!	!	!	!	!
2F\	.	.	8c\L	.	2an/	.	2f\ 2cc 2ff	.	2F\	pa-	2c\	pa-	2a-\	pa-	2ff\	pa-	2f\	.	2f\	.	2anX\	.	2ff\	.
.	.	.	8c\	.	.	.	.	.	.	.	.	.	.	.	.	.	.	.	.	.	.	.	.	.
.	.	.	8c\	.	.	.	.	.	.	.	.	.	.	.	.	.	.	.	.	.	.	.	.	.
.	.	.	8c\J	.	.	.	.	.	.	.	.	.	.	.	.	.	.	.	.	.	.	.	.	.
*	*	*	*Xtremolo	*	*	*	*	*	*	*	*	*	*	*	*	*	*	*	*	*	*	*	*	*
!	!	!	!	!	!	!	!	!	!	!	!LO:LB:g=original	!	!	!	!	!	!	!	!	!	!	!	!	!
=39	=39	=39	=39	=39	=39	=39	=39	=39	=39	=39	=39	=39	=39	=39	=39	=39	=39	=39	=39	=39	=39	=39	=39	=39
!	!	!	!	!	!	!	!	!	!	!	!	!	!LO:SIC:v:s=2an\	!	!	!	!	!	!	!	!	!	!	!
2F\	.	.	2c\	.	2f/ 2a-	.	2f\ 2cc 2ff	.	2F\	-cem	2c\	-cem	2a-\	-cem	2ff\	-cem	2f\	.	2f\	.	2a-\	.	2ff\	.
*	*	*	*	*	*	*	*	*	*	*	*	*	*	*	*	*Xij	*	*	*	*	*	*	*	*
!LO:TX:b:t=pedale	!	!	!	!	!	!	!	!	!	!	!	!	!	!	!	!	!	!	!	!	!	!	!	!
!LO:TX:a:i:t=Solo	!	!	!	!	!	!	!	!	!	!	!	!	!LO:TX:a:t=Solo	!	!LO:TX:a:t=Solo	!	!	!	!	!	!	!	!	!
2r	.	.	2r	.	2r	.	2r	.	2r	.	2r	.	2r	.	2r	.	2r	.	2r	.	2r	.	2r	.
!	!	!	!LO:LB:g=original	!	!	!	!	!	!	!	!	!	!	!	!	!	!	!	!	!	!	!	!	!
=40	=40	=40	=40	=40	=40	=40	=40	=40	=40	=40	=40	=40	=40	=40	=40	=40	=40	=40	=40	=40	=40	=40	=40	=40
!	!	!	!	!	!LO:TX:a:t=Solo	!	!	!LO:DY:b	!	!	!LO:TX:a:t=16	!	!	!	!	!	!	!	!LO:TX:a:t=5:color=grey	!	!LO:TX:a:t=8	!	!	!
2B-\	.	.	2c\	.	2.dd\	.	2.ff\	p	00r	.	00r	.	2.dd\	do-	2.ff\	Do-	00r	.	00r	.	00r	.	00r	.
2BB-/	.	.	2r	.	.	.	.	.	.	.	.	.	.	.	.	.	.	.	.	.	.	.	.	.
!	!	!	!	!	!	!LO:DY:b:rj	!	!	!	!	!	!	!	!	!	!	!	!	!	!	!	!	!	!
.	.	.	.	.	4ee-X\	p	4gg\	.	.	.	.	.	4ee-\	-na	4gg\	-na	.	.	.	.	.	.	.	.
=41	=41	=41	=41	=41	=41	=41	=41	=41	=41	=41	=41	=41	=41	=41	=41	=41	=41	=41	=41	=41	=41	=41	=41	=41
!	!	!	!	!LO:DY:b	!	!	!	!	!	!	!	!	!	!	!	!	!	!	!	!	!	!	!	!
1r	.	.	2f\	p	(4dd\	.	(4ff\	.	.	.	.	.	(4dd\	no-	(4ff\	no-	.	.	.	.	.	.	.	.
.	.	.	.	.	4cc\)	.	4ee-X\)	.	.	.	.	.	4cc\)	.	4ee-X\)	.	.	.	.	.	.	.	.	.
.	.	.	2r	.	4b-|>\	.	(4dd\	.	.	.	.	.	(4b-\	-bis	4dd\	-bis	.	.	.	.	.	.	.	.
.	.	.	.	.	4e-|</	.	4cc\)	.	.	.	.	.	4e-\)	.	4cc\	.	.	.	.	.	.	.	.	.
!	!	!	!	!	!	!	!	!	!	!	!	!	!LO:LB:g=original	!	!	!	!	!	!	!	!	!	!	!
=42	=42	=42	=42	=42	=42	=42	=42	=42	=42	=42	=42	=42	=42	=42	=42	=42	=42	=42	=42	=42	=42	=42	=42	=42
!	!	!	!	!LO:DY:b	!	!	!	!	!	!	!	!	!	!	!	!	!	!	!	!	!	!	!	!
2r	.	.	4f\	p	4e-/	.	(4cc\	.	.	.	.	.	4e-\	pa-	(4cc\	pa-	.	.	.	.	.	.	.	.
.	.	.	4f\	.	4d/	.	4b-\)	.	.	.	.	.	4d\	.	4b-\)	.	.	.	.	.	.	.	.	.
!	!	!	!	!	!LO:N:vis=2.	!	!	!	!	!	!	!	!LO:N:vis=2.	!	!	!	!	!	!	!	!	!	!	!
2B-|>\	.	.	4f\	.	[2d/	.	[2b-\	.	.	.	.	.	[2d\	.	[2b-\	-cem	.	.	.	.	.	.	.	.
.	.	.	4f\	.	.	.	.	.	.	.	.	.	.	.	.	.	.	.	.	.	.	.	.	.
=43	=43	=43	=43	=43	=43	=43	=43	=43	=43	=43	=43	=43	=43	=43	=43	=43	=43	=43	=43	=43	=43	=43	=43	=43
!	!	!	!	!	!	!	!LO:N:xstem:cue	!	!	!	!	!	!	!	!LO:N:xstem:cue	!	!	!	!	!	!	!	!	!
2BB-|</	.	.	4f\	.	4d/]	.	4b-\]	.	.	.	.	.	4d\]]yy	.	4b-\]	.	.	.	.	.	.	.	.	.
.	.	.	4f\	.	4d/yy	.	4b-\	.	.	.	.	.	4d\	.	(4b-\	pa-	.	.	.	.	.	.	.	.
2r	.	.	4f\	.	4an/	.	4cc\	.	.	.	.	.	4an\	.	4cc\)	.	.	.	.	.	.	.	.	.
.	.	.	4f\	.	4b-/	.	4dd\	.	.	.	.	.	4b-\	-cem	4dd\	-cem	.	.	.	.	.	.	.	.
!LO:LB:g=original	!	!	!	!	!	!	!	!	!	!	!	!	!	!	!	!	!	!	!	!	!	!	!	!
=44	=44	=44	=44	=44	=44	=44	=44	=44	=44	=44	=44	=44	=44	=44	=44	=44	=44	=44	=44	=44	=44	=44	=44	=44
2r	.	.	4f\	.	4b-/	.	4dd\	.	00r	.	00r	.	4b-\	pa-	4dd\	pa-	0r	.	1r	.	00r	.	0r	.
!	!	!	!	!	!	!	!	!	!	!	!	!	!LO:SIC:v:s=4an\	!	!	!	!	!	!	!	!	!	!	!
.	.	.	4f\	.	4an/	.	4cc\	.	.	.	.	.	4a-\	.	4cc\	.	.	.	.	.	.	.	.	.
!	!	!	!	!	!LO:N:vis=2.	!	!	!	!	!	!	!	!LO:N:vis=2.	!	!	!	!	!	!	!	!	!	!	!
!	!	!	!	!	!	!	!	!	!	!	!	!	!LO:SIC:v:s=[2an\	!	!	!	!	!	!	!	!	!	!	!
2F|>\	.	.	4f\	.	[y2a/	.	[2cc\	.	.	.	.	.	[2a-\	-cem	[y2cc\	-cem	.	.	.	.	.	.	.	.
.	.	.	4f\	.	.	.	.	.	.	.	.	.	.	.	.	.	.	.	.	.	.	.	.	.
!	!	!	!	!	!LO:LB:g=original	!	!	!	!	!	!	!	!	!	!	!	!	!	!	!	!	!	!	!
=45	=45	=45	=45	=45	=45	=45	=45	=45	=45	=45	=45	=45	=45	=45	=45	=45	=45	=45	=45	=45	=45	=45	=45	=45
!	!	!	!	!	!	!	!LO:N:xstem:cue	!	!	!	!	!	!LO:SIC:v:s=4an\]	!	!LO:N:xstem:cue	!	!	!	!LO:TX:t=P:problem=brak t. 45	!	!	!	!	!
2FF/	.	.	4f\	.	4a/]yy	.	4cc\]	.	.	.	.	.	4a-\]	.	4cc\]	.	.	.	1ryy	.	.	.	.	.
!	!	!	!	!	!	!	!	!	!	!	!	!	!LO:SIC:v:s=4a\	!	!	!	!	!	!	!	!	!	!	!
.	.	.	4f\	.	4any/	.	4cc\	.	.	.	.	.	4a-\	pa-	4cc\	pa-	.	.	.	.	.	.	.	.
2r	.	.	4f\	.	4b-/	.	4dd\	.	.	.	.	.	4b-\	.	4dd\	.	.	.	.	.	.	.	.	.
.	.	.	4f\	.	4cc/	.	4ee-\	.	.	.	.	.	4cc\	-cem	4ee-\	-cem	.	.	.	.	.	.	.	.
!	!	!	!	!	!	!	!LO:LB:g=original	!	!	!	!	!	!	!	!	!	!	!	!	!	!	!	!	!
=46	=46	=46	=46	=46	=46	=46	=46	=46	=46	=46	=46	=46	=46	=46	=46	=46	=46	=46	=46	=46	=46	=46	=46	=46
2r	.	.	4f\	.	4cc/	.	(4ee-\	.	.	.	.	.	(4cc\	pa-	4ee-\	pa-	2r	.	2r	.	.	.	1r	.
.	.	.	4f\	.	4b-/	.	4dd\)	.	.	.	.	.	4b-\)	.	4dd\	.	.	.	.	.	.	.	.	.
2B-|>\	.	.	4f\	.	2b-/	.	2dd\	.	.	.	.	.	2b-\	-cem	2dd\	-cem	2BB-/	.	2B-/	.	.	.	.	.
.	.	.	4f\	.	.	.	.	.	.	.	.	.	.	.	.	.	.	.	.	.	.	.	.	.
=47	=47	=47	=47	=47	=47	=47	=47	=47	=47	=47	=47	=47	=47	=47	=47	=47	=47	=47	=47	=47	=47	=47	=47	=47
!	!	!	!	!	!	!	!	!	!	!	!	!	!	!	!	!	!	!	!	!	!	!	!LO:TX:a:t=Solo	!
2BB-|</	.	.	4f\	.	1r	.	2r	.	.	.	.	.	1r	.	1r	.	2BB-/	.	2B-/	.	.	.	2r	.
.	.	.	4f\	.	.	.	.	.	.	.	.	.	.	.	.	.	.	.	.	.	.	.	.	.
!	!	!	!	!	!	!	!	!	!	!	!	!	!	!	!	!	!	!	!	!	!	!	!	!LO:DY:b:rj
2r	.	.	4f\	.	.	.	4B-/	.	.	.	.	.	.	.	.	.	2r	.	2r	.	.	.	4b-\	p
.	.	.	4r	.	.	.	4c/	.	.	.	.	.	.	.	.	.	.	.	.	.	.	.	4dd\	.
!	!	!	!LO:LB:g=original	!	!	!	!	!	!	!	!	!	!	!	!	!	!	!	!	!	!	!	!	!
=48	=48	=48	=48	=48	=48	=48	=48	=48	=48	=48	=48	=48	=48	=48	=48	=48	=48	=48	=48	=48	=48	=48	=48	=48
!	!	!	!LO:TX:t=P:problem=zbędne 3 takty pauzy t. 48-50	!	!	!	!	!	!	!	!	!	!	!	!	!	!	!	!	!	!	!	!	!
!LO:TX:t=P:problem=nadmiarowe 3 takty pauzy w vla	!	!	!	!	!LO:TX:t=P:problem=nadmiarowe 3 takty pauzy w vla	!	!LO:TX:t=P:problem=nadmiarowe 3 takty pauzy w vla	!	!LO:TX:t=P:problem=nadmiarowe 3 takty pauzy w vla	!	!LO:TX:t=P:problem=nadmiarowe 3 takty pauzy w vla	!	!LO:TX:t=P:problem=nadmiarowe 3 takty pauzy w vla	!	!LO:TX:t=P:problem=nadmiarowe 3 takty pauzy w vla	!	!LO:TX:t=P:problem=nadmiarowe 3 takty pauzy w vla	!	!LO:TX:t=P:problem=nadmiarowe 3 takty pauzy w vla	!	!LO:TX:t=P:problem=nadmiarowe 3 takty pauzy w vla	!	!LO:TX:t=P:problem=nadmiarowe 3 takty pauzy w vla	!
1ryy	.	.	1r	.	1ryy	.	1ryy	.	1ryy	.	1ryy	.	1ryy	.	1ryy	.	1ryy	.	1ryy	.	1ryy	.	1ryy	.
=49	=49	=49	=49	=49	=49	=49	=49	=49	=49	=49	=49	=49	=49	=49	=49	=49	=49	=49	=49	=49	=49	=49	=49	=49
1ryy	.	.	1r	.	1ryy	.	1ryy	.	1ryy	.	1ryy	.	1ryy	.	1ryy	.	1ryy	.	1ryy	.	1ryy	.	1ryy	.
=50	=50	=50	=50	=50	=50	=50	=50	=50	=50	=50	=50	=50	=50	=50	=50	=50	=50	=50	=50	=50	=50	=50	=50	=50
1ryy	.	.	1r	.	1ryy	.	1ryy	.	1ryy	.	1ryy	.	1ryy	.	1ryy	.	1ryy	.	1ryy	.	1ryy	.	1ryy	.
=51	=51	=51	=51	=51	=51	=51	=51	=51	=51	=51	=51	=51	=51	=51	=51	=51	=51	=51	=51	=51	=51	=51	=51	=51
!	!	!	!	!	!	!	!	!	!LO:TX:t=P:problem=zbędny 1 takt pauzy	!	!	!	!	!	!	!	!	!	!	!	!	!	!	!
!LO:TX:t=P:problem=nadmiarowy 1 takt pauzy w Baſso	!	!	!LO:TX:t=P:problem=nadmiarowy 1 takt pauzy w Baſso	!	!LO:TX:t=P:problem=nadmiarowy 1 takt pauzy w Baſso	!	!LO:TX:t=P:problem=nadmiarowy 1 takt pauzy w Baſso	!	!	!	!LO:TX:t=P:problem=nadmiarowy 1 takt pauzy w Baſso	!	!LO:TX:t=P:problem=nadmiarowy 1 takt pauzy w Baſso	!	!LO:TX:t=P:problem=nadmiarowy 1 takt pauzy w Baſso	!	!LO:TX:t=P:problem=nadmiarowy 1 takt pauzy w Baſso	!	!LO:TX:t=P:problem=nadmiarowy 1 takt pauzy w Baſso	!	!LO:TX:t=P:problem=nadmiarowy 1 takt pauzy w Baſso	!	!LO:TX:t=P:problem=nadmiarowy 1 takt pauzy w Baſso	!
1ryy	.	.	1ryy	.	1ryy	.	1ryy	.	1r	.	1ryy	.	1ryy	.	1ryy	.	1ryy	.	1ryy	.	1ryy	.	1ryy	.
=52	=52	=52	=52	=52	=52	=52	=52	=52	=52	=52	=52	=52	=52	=52	=52	=52	=52	=52	=52	=52	=52	=52	=52	=52
!	!	!	!	!	!	!	!	!	!	!	!	!	!	!	!	!	!	!	!LO:TX:a:t=6:color=grey	!	!LO:TX:a:t=Solo	!	!	!
2B-|>\	.	.	1r	.	4f/	.	2.f/	.	2.F\	Do-	00r	.	1r	.	1r	.	00r	.	00r	.	2.dd\	.	2.ff\	.
.	.	.	.	.	4f/	.	.	.	.	.	.	.	.	.	.	.	.	.	.	.	.	.	.	.
2BB-|>/	.	.	.	.	4f/	.	.	.	.	.	.	.	.	.	.	.	.	.	.	.	.	.	.	.
!	!	!	!	!	!	!	!	!	!	!	!	!	!	!	!	!	!	!	!	!	!	!LO:DY:b:rj	!	!
.	.	.	.	.	4f/	.	4g/	.	4G\	-na	.	.	.	.	.	.	.	.	.	.	4ee-\	p	4gg\	.
=53	=53	=53	=53	=53	=53	=53	=53	=53	=53	=53	=53	=53	=53	=53	=53	=53	=53	=53	=53	=53	=53	=53	=53	=53
1r	.	.	1F	.	4f/	.	4f/	.	4F\	no-	.	.	1r	.	1r	.	.	.	.	.	(>4dd\	.	4ff\	.
.	.	.	.	.	4f/	.	4e-/	.	4E-\	.	.	.	.	.	.	.	.	.	.	.	4cc\	.	4ee-\	.
.	.	.	.	.	4f/	.	4d/	.	4D/	.	.	.	.	.	.	.	.	.	.	.	4b-\	.	4dd\	.
.	.	.	.	.	4f/	.	4c/	.	4C/	-bis	.	.	.	.	.	.	.	.	.	.	4f/)	.	4cc\	.
!	!	!	!	!	!	!	!	!	!LO:LB:g=original	!	!	!	!	!	!	!	!	!	!	!	!	!	!	!
=54	=54	=54	=54	=54	=54	=54	=54	=54	=54	=54	=54	=54	=54	=54	=54	=54	=54	=54	=54	=54	=54	=54	=54	=54
2r	.	.	1F	.	4f/	.	4c/	.	4C/	pa-	.	.	1r	.	1r	.	.	.	.	.	(4e-/	.	4cc\	.
.	.	.	.	.	4f/	.	4B-/	.	4BB-/	.	.	.	.	.	.	.	.	.	.	.	4dnX/)	.	4b-\	.
!	!	!	!	!	!	!	!	!	!LO:N:vis=2.	!	!	!	!	!	!	!	!	!	!	!	!	!	!LO:N:vis=2.	!
2B-|>\	.	.	.	.	4f/	.	[2B-/	.	[2BB-/	.	.	.	.	.	.	.	.	.	.	.	[2d/	.	[y2b-\	.
.	.	.	.	.	4f/	.	.	.	.	.	.	.	.	.	.	.	.	.	.	.	.	.	.	.
!	!	!	!	!	!	!	!	!	!	!	!	!	!	!	!	!	!	!	!	!	!	!	!LO:LB:g=original	!
=55	=55	=55	=55	=55	=55	=55	=55	=55	=55	=55	=55	=55	=55	=55	=55	=55	=55	=55	=55	=55	=55	=55	=55	=55
!	!	!	!	!	!LO:TX:t=P:problem=t.55-57 zapisane jako repetycja	!	!	!	!	!	!	!	!	!	!	!	!	!	!	!	!	!	!	!
!	!	!	!	!	!	!	!LO:N:xstem:cue	!	!	!	!	!	!	!	!	!	!	!	!	!	!	!	!	!
2BB-|</	.	.	1F	.	4f/	.	4B-/]	.	4BB-/]yy	pa-	.	.	00r	.	00r	.	.	.	.	.	4d/]	.	4b-\]yy	.
.	.	.	.	.	4f/	.	4B-/	.	4BB-/	.	.	.	.	.	.	.	.	.	.	.	4f/	.	4b-\	.
!	!	!	!	!	!	!	!	!	!	!	!	!	!	!	!	!	!	!	!	!	!LO:LB:g=original	!	!	!
=-	=-	=-	=-	=-	=-	=-	=-	=-	=-	=-	=-	=-	=-	=-	=-	=-	=-	=-	=-	=-	=-	=-	=-	=-
2r	.	.	.	.	4f/	.	4c/	.	4C/	.	.	.	.	.	.	.	.	.	.	.	4a/	.	4cc\	.
.	.	.	.	.	4f/	.	4d/	.	4D/	-cem	.	.	.	.	.	.	.	.	.	.	4b-/	.	4dd\	.
=56	=56	=56	=56	=56	=56	=56	=56	=56	=56	=56	=56	=56	=56	=56	=56	=56	=56	=56	=56	=56	=56	=56	=56	=56
2r	.	.	1F	.	4f/	.	4d/	.	4D/	pa-	00r	.	.	.	.	.	0r	.	0r	.	4b-/	.	4dd\	.
.	.	.	.	.	4f/	.	4c/	.	4C/	.	.	.	.	.	.	.	.	.	.	.	4a/	.	4cc\	.
!	!	!	!	!	!	!	!	!	!LO:N:vis=2.	!	!	!	!	!	!	!	!	!	!	!	!LO:N:vis=2.	!	!LO:N:vis=2.	!
2F\	.	.	.	.	4f/	.	[2c/	.	[2C/	.	.	.	.	.	.	.	.	.	.	.	[2a/	.	[y2cc\	.
.	.	.	.	.	4f/	.	.	.	.	.	.	.	.	.	.	.	.	.	.	.	.	.	.	.
=57	=57	=57	=57	=57	=57	=57	=57	=57	=57	=57	=57	=57	=57	=57	=57	=57	=57	=57	=57	=57	=57	=57	=57	=57
!	!	!	!	!	!	!	!LO:N:xstem:cue	!	!	!	!	!	!	!	!	!	!	!	!	!	!	!	!	!
2FF/	.	.	1F	.	4f/	.	4c/]	.	4C/]yy	pa-	.	.	.	.	.	.	.	.	.	.	4a/]yy	.	4cc\]yy	.
.	.	.	.	.	4f/	.	4c/	.	4C/	.	.	.	.	.	.	.	.	.	.	.	4any/	.	4cc\	.
2r	.	.	.	.	4f/	.	4d/	.	4D/	.	.	.	.	.	.	.	.	.	.	.	4b-/	.	4dd\	.
!	!	!	!	!	!	!	!LO:TX:b:i:t=Volti Subito	!	!	!	!	!	!	!	!	!	!	!	!	!	!	!	!	!
.	.	.	.	.	4f/	.	4e-/	.	4E-/	-cem	.	.	.	.	.	.	.	.	.	.	4cc/	.	4ee-\	.
!	!	!	!	!	!	!	!LO:LB:g=original	!	!	!	!	!	!	!	!	!	!	!	!	!	!	!	!	!
=58	=58	=58	=58	=58	=58	=58	=58	=58	=58	=58	=58	=58	=58	=58	=58	=58	=58	=58	=58	=58	=58	=58	=58	=58
!	!	!	!	!	!	!	!	!	!	!	!	!	!	!	!	!	!	!LO:DY:b	!	!	!	!	!	!
2r	.	.	1F	.	4f/	.	4e-/	.	(4E-\	pa-	.	.	.	.	.	.	2r	p	2r	.	4b-\	.	4ee-\	.
.	.	.	.	.	4f/	.	4d/	.	4D\)	.	.	.	.	.	.	.	.	.	.	.	4b-\	.	4dd\	.
2B-|>\	.	.	.	.	4f/	.	2d/	.	2D\	-cem	.	.	.	.	.	.	2BB-/	.	2B-/	.	2b-\	.	2dd\	.
.	.	.	.	.	4f/	.	.	.	.	.	.	.	.	.	.	.	.	.	.	.	.	.	.	.
=59	=59	=59	=59	=59	=59	=59	=59	=59	=59	=59	=59	=59	=59	=59	=59	=59	=59	=59	=59	=59	=59	=59	=59	=59
!	!	!	!	!	!	!	!	!	!LO:TX:t=P:problem=brak 1 taktu pauzy	!	!	!	!	!	!	!	!	!	!	!	!	!	!	!
2BB-/	.	.	2F/	.	2f/	.	4r	.	1ryy	.	.	.	1r	.	1r	.	2BB-/	.	2B-/	.	2b-\	.	2dd\	.
.	.	.	.	.	.	.	4b-|>\	.	.	.	.	.	.	.	.	.	.	.	.	.	.	.	.	.
!LO:TX:a:i:t=Tutti	!	!	!	!	!	!	!	!	!	!	!	!	!	!	!	!	!	!	!	!	!	!	!	!
2r	.	.	2r	.	2r	.	4dd|>\	.	.	.	.	.	.	.	.	.	2r	.	2r	.	2r	.	2r	.
.	.	.	.	.	.	.	4ff|>\	.	.	.	.	.	.	.	.	.	.	.	.	.	.	.	.	.
!	!	!	!	!	!	!	!	!	!	!	!	!	!LO:LB:g=original	!	!LO:LB:g=original	!	!	!	!LO:LB:g=original	!	!	!	!	!
=60	=60	=60	=60	=60	=60	=60	=60	=60	=60	=60	=60	=60	=60	=60	=60	=60	=60	=60	=60	=60	=60	=60	=60	=60
*	*	*	*	*	*tremolo	*	*	*	*	*	*	*	*	*	*	*	*	*	*	*	*	*	*	*
!	!	!LO:DY:b:t=f.	!	!LO:DY:b	!	!LO:DY:b	!	!LO:DY:b:rj	!	!	!	!	!	!	!	!	!	!LO:DY:b	!	!	!	!	!	!LO:DY:b
4B-\	.	f	4f\	f	8b-\L	f	8bb-|>\L	f	4BB-/	Do-	4d\	Do-	4b-\	Do-	4ff\	Do-	1B-	f	1b-	.	2.dd\	.	2.bb-\	f
.	.	.	.	.	8b-\	.	8b-|>\	.	.	.	.	.	.	.	.	.	.	.	.	.	.	.	.	.
4BB-/	.	.	4f\	.	8b-\	.	8bb-|>\	.	4BB-/	-na	4d\	-na	4b-\	-na	4ff\	-na	.	.	.	.	.	.	.	.
.	.	.	.	.	8b-\J	.	8b-|>\J	.	.	.	.	.	.	.	.	.	.	.	.	.	.	.	.	.
!	!	!	!	!	!	!LO:DY:b	!	!	!	!	!	!	!	!	!	!	!	!	!	!	!	!	!	!
4D/	6	.	4f\	.	8b-\L	f	8bb-|>\L	.	4D/	no-	4d\	no-	4b-\	no-	4ff\	no-	.	.	.	.	.	.	.	.
.	.	.	.	.	8b-\	.	8b-|>\	.	.	.	.	.	.	.	.	.	.	.	.	.	.	.	.	.
!	!	!	!	!	!	!	!	!	!	!	!	!	!	!	!	!	!	!	!	!	!	!LO:DY:b	!	!
4BB-/	.	.	4f\	.	8b-\	.	8ff|>\	.	4BB-/	-biſ	4d\	-biſ	4b-\	-bis	4ff\	-biſ	.	.	.	.	4dd\	f	4ff\	.
.	.	.	.	.	8b-\J	.	8b-|>\J	.	.	.	.	.	.	.	.	.	.	.	.	.	.	.	.	.
!LO:LB:g=original	!	!	!	!	!	!	!	!	!	!	!	!	!	!	!	!	!	!	!	!	!	!	!	!
=61	=61	=61	=61	=61	=61	=61	=61	=61	=61	=61	=61	=61	=61	=61	=61	=61	=61	=61	=61	=61	=61	=61	=61	=61
4E-\	5_ 3	.	4e-\	.	8b-\L	.	8gg|>\L	.	4E-\	pa-	4e-\	pa-	(2b-\	pa-	4gg\	pa-	2B-/	.	2b-\	.	4ee-\	.	4gg\	.
.	.	.	.	.	8b-\	.	8b-|>\	.	.	.	.	.	.	.	.	.	.	.	.	.	.	.	.	.
4D\	x 3	.	4f\	.	8b-\	.	8ff|>\	.	4D\	.	4d\	.	.	.	4ff\	.	.	.	.	.	4dd\	.	4ff\	.
.	.	.	.	.	8b-\J	.	8b-|>\J	.	.	.	.	.	.	.	.	.	.	.	.	.	.	.	.	.
*	*	*	*	*	*Xtremolo	*	*	*	*	*	*	*	*	*	*	*	*	*	*	*	*	*	*	*
4C\	7	.	4g\	.	8ee-\L	.	8gg|>\L	.	4C\	.	4c\	.	4ee-\)	.	4gg\	.	2r	.	2r	.	4ee-\	.	4gg\	.
.	.	.	.	.	8ee-\	.	8gg|>\	.	.	.	.	.	.	.	.	.	.	.	.	.	.	.	.	.
4F\	7	.	4an\	.	8cc\	.	(8aan\	.	4F\	-cem	4c\	-cem	4cc\	-cem	4aan\	.	.	.	.	.	4cc\	.	4aa\	.
.	.	.	.	.	8cc\J	.	8ff\J)	.	.	.	.	.	.	.	.	.	.	.	.	.	.	.	.	.
!	!	!	!	!	!LO:LB:g=original	!	!	!	!	!	!	!	!	!	!	!	!LO:LB:g=original	!	!	!	!LO:PB:g=original	!	!LO:LB:g=original	!
=62	=62	=62	=62	=62	=62	=62	=62	=62	=62	=62	=62	=62	=62	=62	=62	=62	=62	=62	=62	=62	=62	=62	=62	=62
*	*	*	*	*	*tremolo	*	*	*	*	*ij	*	*ij	*	*ij	*	*	*	*	*	*	*	*	*	*
!	!	!	!LO:TX:t=P:problem=t. 62-63 zapisane jako repetycja	!	!	!	!	!	!LO:TX:t=P:problem=t. 62-63 zapisane jako repetycja	!	!	!	!	!	!	!	!	!	!	!	!	!	!	!
4B-\	.	.	4f\	.	8b-\L	.	8bb-\L	.	4BB-/	Do-	4d\	Do-	4b-\	Do-	4ff\	-cem	1B-	.	1b-	.	2.dd\	.	2.bb-\	.
.	.	.	.	.	8b-\	.	8b-\	.	.	.	.	.	.	.	.	.	.	.	.	.	.	.	.	.
4BB-/	.	.	4f\	.	8b-\	.	8bb-\	.	4BB-/	-na	4d\	-na	4b-\	-na	4ff\	do-	.	.	.	.	.	.	.	.
.	.	.	.	.	8b-\J	.	8b-\J	.	.	.	.	.	.	.	.	.	.	.	.	.	.	.	.	.
4D/	6	.	4f\	.	8b-\L	.	8bb-\L	.	4D/	no-	4d\	no-	4b-\	no-	4ff\	-na	.	.	.	.	.	.	.	.
.	.	.	.	.	8b-\	.	8b-\	.	.	.	.	.	.	.	.	.	.	.	.	.	.	.	.	.
4BB-/	.	.	4f\	.	8b-\	.	8ff\	.	4BB-/	-biſ	4d\	-biſ	4b-\	-bis	4ff\	no-	.	.	.	.	4dd\	.	4ff\	.
.	.	.	.	.	8b-\J	.	8b-\J	.	.	.	.	.	.	.	.	.	.	.	.	.	.	.	.	.
=63	=63	=63	=63	=63	=63	=63	=63	=63	=63	=63	=63	=63	=63	=63	=63	=63	=63	=63	=63	=63	=63	=63	=63	=63
4E-\	5_ 3	.	4e-\	.	8b-\L	.	8gg\L	.	4E-\	pa-	4e-\	pa-	(2b-\	pa-	4gg\	-bis	2B-/	.	2b-\	.	4ee-\	.	4gg\	.
.	.	.	.	.	8b-\	.	8b-\	.	.	.	.	.	.	.	.	.	.	.	.	.	.	.	.	.
4D\	x 3	.	4f\	.	8b-\	.	8ff\	.	4D\	.	4d\	.	.	.	4ff\	pa-	.	.	.	.	4dd\	.	4ff\	.
.	.	.	.	.	8b-\J	.	8b-\J	.	.	.	.	.	.	.	.	.	.	.	.	.	.	.	.	.
*	*	*	*	*	*Xtremolo	*	*	*	*	*	*	*	*	*	*	*	*	*	*	*	*	*	*	*
4C\	7	.	4g\	.	8ee-\L	.	8gg|>\L	.	4C\	.	4c\	.	4ee-\)	.	4gg\	.	2r	.	2r	.	4ee-\	.	4gg\	.
.	.	.	.	.	8ee-\	.	8gg|>\	.	.	.	.	.	.	.	.	.	.	.	.	.	.	.	.	.
4F\	7	.	4an\	.	8cc\	.	(8aan\	.	4F\	-cem	4c\	-cem	4cc\	-cem	4aan\	.	.	.	.	.	4cc\	.	4aa\	.
*	*	*	*	*	*	*	*	*	*	*Xij	*	*Xij	*	*Xij	*	*	*	*	*	*	*	*	*	*
.	.	.	.	.	8cc\J	.	8ff\J)	.	.	.	.	.	.	.	.	.	.	.	.	.	.	.	.	.
=64	=64	=64	=64	=64	=64	=64	=64	=64	=64	=64	=64	=64	=64	=64	=64	=64	=64	=64	=64	=64	=64	=64	=64	=64
2B-\	.	.	2f\	.	2f/ 2dd	.	2b-\ 2bb-	.	2B-\	pa-	2d\	pa-	2b-\	pa-	2ff\	.	2B-/	.	2b-\	.	2dd\	.	2bb-\	.
2BB-/	.	.	2f\	.	2f/ 2dd	.	2b-\ 2bb-	.	2BB-/	-cem	2d\	-cem	2b-\	-cem	2ff\	-cem	2B-/	.	2b-\	.	2dd\	.	2bb-\	.
!	!	!	!	!	!	!	!LO:LB:g=original	!	!	!	!	!	!	!	!	!	!	!	!	!	!	!	!	!
=65	=65	=65	=65	=65	=65	=65	=65	=65	=65	=65	=65	=65	=65	=65	=65	=65	=65	=65	=65	=65	=65	=65	=65	=65
2r	.	.	2r	.	2r	.	2r	.	2r	.	2r	.	2r	.	2r	.	2r	.	2r	.	2r	.	2r	.
!	!	!	!	!	!	!	!	!	!	!	!LO:LB:g=original	!	!	!	!	!	!	!	!	!	!	!	!	!
=-	=-	=-	=-	=-	=-	=-	=-	=-	=-	=-	=-	=-	=-	=-	=-	=-	=-	=-	=-	=-	=-	=-	=-	=-
2BB-/	.	.	2f\	.	2f/ 2dd	.	2b-\ 2bb-	.	2BB-/	da	2d\	da	2b-\	da	2ff\	da	2B-/	.	2b-\	.	2dd\	.	2bb-\	.
!	!	!	!LO:LB:g=original	!	!	!	!	!	!LO:LB:g=original	!	!	!	!	!	!	!	!	!	!	!	!	!	!	!
=66	=66	=66	=66	=66	=66	=66	=66	=66	=66	=66	=66	=66	=66	=66	=66	=66	=66	=66	=66	=66	=66	=66	=66	=66
!	!	!	!	!	!	!	!	!	!	!	!	!	!	!	!	!	!LO:SIC:v:s=2B-/	!	!	!	!	!	!	!
2D\	6_ 5-_	.	2f\	.	2dd\ 2ff	.	2b-\ 2aa-X	.	2D/	pa-	2d\	pa-	2b-\	pa-	2ff\	pa-	2c/	.	2f\	.	2ff\	.	2aa-X\	.
!	!	!	!	!	!	!	!	!	!	!	!	!	!	!	!	!	!LO:SIC:v:s=2B-/	!	!	!	!	!	!	!
2D\	x x	.	2f\	.	2dd\ 2ff	.	2b-\ 2aa-	.	2D/	-cem	2d\	-cem	2b-\	-cem	2ff\	-cem	2c/	.	2f\	.	2ff\	.	2aa-\	.
!	!	!	!	!	!	!	!	!	!	!	!	!	!LO:LB:g=original	!	!	!	!	!	!	!	!	!	!	!
=67	=67	=67	=67	=67	=67	=67	=67	=67	=67	=67	=67	=67	=67	=67	=67	=67	=67	=67	=67	=67	=67	=67	=67	=67
!	!	!	!	!	!	!	!	!	!	!	!	!	!LO:TX:t=P:problem=zbędne 2 takty pauzy t. 67-68	!	!	!	!	!	!	!	!	!	!	!
!LO:TX:t=P:problem=nadmiarowe 2 takty pauzy w Alto	!	!	!LO:TX:t=P:problem=nadmiarowe 2 takty pauzy w Alto	!	!LO:TX:t=P:problem=nadmiarowe 2 takty pauzy w Alto	!	!LO:TX:t=P:problem=nadmiarowe 2 takty pauzy w Alto	!	!LO:TX:t=P:problem=nadmiarowe 2 takty pauzy w Alto	!	!LO:TX:t=P:problem=nadmiarowe 2 takty pauzy w Alto	!	!LO:TX:a:t=5	!	!LO:TX:t=P:problem=nadmiarowe 2 takty pauzy w Alto	!	!LO:TX:t=P:problem=nadmiarowe 2 takty pauzy w Alto	!	!LO:TX:t=P:problem=nadmiarowe 2 takty pauzy w Alto	!	!LO:TX:t=P:problem=nadmiarowe 2 takty pauzy w Alto	!	!LO:TX:t=P:problem=nadmiarowe 2 takty pauzy w Alto	!
1ryy	.	.	1ryy	.	1ryy	.	1ryy	.	1ryy	.	1ryy	.	00r	.	1ryy	.	1ryy	.	1ryy	.	1ryy	.	1ryy	.
=68	=68	=68	=68	=68	=68	=68	=68	=68	=68	=68	=68	=68	=68	=68	=68	=68	=68	=68	=68	=68	=68	=68	=68	=68
1ryy	.	.	1ryy	.	1ryy	.	1ryy	.	1ryy	.	1ryy	.	.	.	1ryy	.	1ryy	.	1ryy	.	1ryy	.	1ryy	.
=69	=69	=69	=69	=69	=69	=69	=69	=69	=69	=69	=69	=69	=69	=69	=69	=69	=69	=69	=69	=69	=69	=69	=69	=69
!LO:TX:a:i:t=Solo	!	!	!	!	!	!	!	!	!	!	!	!	!	!	!	!	!	!	!	!	!	!	!	!
1r	.	.	1r	.	2r	.	2r	.	0r	.	0r	.	.	.	0r	.	2r	.	2r	.	2r	.	2r	.
!	!	!	!	!	!	!LO:DY:b	!	!LO:DY:b:t=p.	!	!	!	!	!	!	!	!	!LO:SIC:v:s=2f\	!LO:DY:b	!	!	!	!LO:DY:b	!	!LO:DY:b:rj
.	.	.	.	.	2f/	p	2a-/	p	.	.	.	.	.	.	.	.	2g\	p	2a-\	.	2ff\	p	2aa-\	p
=70	=70	=70	=70	=70	=70	=70	=70	=70	=70	=70	=70	=70	=70	=70	=70	=70	=70	=70	=70	=70	=70	=70	=70	=70
!	!	!	!	!LO:DY:b	!	!	!	!	!	!	!	!	!	!	!	!	!LO:TX:a:t=c	!	!	!	!	!	!	!
1BB-	6 4	.	1B-	p	2e-/	.	(2g/	.	.	.	.	.	.	.	.	.	2e-\	.	2g\	.	2ee-\	.	2gg\	.
.	5 3	.	.	.	2d/	.	2f/)	.	.	.	.	.	.	.	.	.	2B-/	.	2f\	.	2dd\	.	2ff\	.
!	!	!	!	!	!	!	!	!	!	!	!	!	!	!	!	!	!	!	!	!	!	!	!LO:LB:g=original	!
=71	=71	=71	=71	=71	=71	=71	=71	=71	=71	=71	=71	=71	=71	=71	=71	=71	=71	=71	=71	=71	=71	=71	=71	=71
!LO:TX:a:i:t=Tutti	!	!	!	!	!	!	!LO:TX:a:t=1	!	!	!	!	!	!	!	!	!	!LO:TX:a:t=16	!	!LO:TX:a:t=16	!	!LO:TX:a:t=4	!	!	!
1r	.	.	1r	.	1r	.	1r	.	1r	.	1r	.	1r	.	1r	.	00r	.	00r	.	00r	.	00r	.
=72	=72	=72	=72	=72	=72	=72	=72	=72	=72	=72	=72	=72	=72	=72	=72	=72	=72	=72	=72	=72	=72	=72	=72	=72
!	!	!	!	!	!	!LO:DY:b	!	!LO:DY:b:t=f.	!	!	!	!	!	!	!	!	!	!	!	!	!	!	!	!
2e-\	.	.	2e-\	.	2ee-\	f	2ee-\	f	2E-\	Do-	2e-\	Do-	2e-\	Do-	2ee-\	Do-	.	.	.	.	.	.	.	.
!	!	!	!LO:N:vis=2.	!LO:DY:b	!LO:N:vis=2.	!	!	!	!LO:N:vis=2.	!	!LO:N:vis=2.	!	!LO:N:vis=2.	!	!	!	!	!	!	!	!	!	!	!
[2E-\	.	.	[y2e-\	f	[y2e-/	.	[2e-/	.	[2E-\	-na	[y2e-\	-na	[2e-\	-na	[2ee-\	-na	.	.	.	.	.	.	.	.
=73	=73	=73	=73	=73	=73	=73	=73	=73	=73	=73	=73	=73	=73	=73	=73	=73	=73	=73	=73	=73	=73	=73	=73	=73
!LO:N:xstem:cue	!	!	!	!	!	!	!LO:N:xstem:cue	!	!	!	!	!	!	!	!LO:N:xstem:cue	!	!	!	!	!	!	!	!	!
4E-\]	.	.	4e-\]yy	.	4e-/]yy	.	4e-/]	.	4E-\]yy	.	4e-\]yy	.	4e-\]]yy	.	4ee-\]	.	.	.	.	.	.	.	.	.
4G|>\	.	.	4g\	.	4g/	.	4g|</	.	4G\	no-	4G\	no-	4g\	no-	4g\	no-	.	.	.	.	.	.	.	.
4A-|>\	.	.	4a-\	.	4a-/	.	4a-|</	.	4A-\	.	4A-\	.	4a-\	.	4a-\	.	.	.	.	.	.	.	.	.
4An|>\	.	.	4an\	.	4an/	.	4an|</	.	4An\	-biſ	4An\	-bis	4an\	-bis	4an\	-bis	.	.	.	.	.	.	.	.
!	!	!	!	!	!LO:LB:g=original	!	!	!	!	!	!	!	!	!	!	!	!	!	!	!	!	!	!	!
=74	=74	=74	=74	=74	=74	=74	=74	=74	=74	=74	=74	=74	=74	=74	=74	=74	=74	=74	=74	=74	=74	=74	=74	=74
2B-\	.	.	2b-\	.	2b-/	.	2b-/	.	2B-\	pa-	2B-\	pa-	2b-\	pa-	2b-\	pa-	.	.	.	.	.	.	.	.
!	!	!	!	!	!LO:N:vis=2.	!	!	!	!	!	!	!	!	!	!	!	!	!	!	!	!	!	!	!
2BB-/	.	.	2B-/	.	[2B-/	.	[2B-/	.	2BB-/	-cem	2B-\	-cem,	2b-\	-cem	2b-\	-cem	.	.	.	.	.	.	.	.
!LO:LB:g=original	!	!	!	!	!	!	!	!	!	!	!	!	!	!	!LO:LB:g=original	!	!	!	!	!	!	!	!	!
=75	=75	=75	=75	=75	=75	=75	=75	=75	=75	=75	=75	=75	=75	=75	=75	=75	=75	=75	=75	=75	=75	=75	=75	=75
!LO:TX:b:t=pedale	!	!	!	!	!	!	!	!	!	!	!	!	!	!	!	!	!	!	!	!	!	!	!	!
!LO:TX:a:i:t=Solo	!	!	!	!	!	!	!LO:N:xstem:cue	!	!	!	!	!	!LO:TX:a:t=13	!	!	!	!	!	!	!	!	!	!	!
2B-\	.	.	2B-/	.	4B-/]yy	.	4B-/]	.	00r	.	00r	.	00r	.	00r	.	00r	.	00r	.	4r	.	4r	.
!	!	!	!	!	!	!	!	!	!	!	!	!	!	!	!	!	!	!	!	!	!	!	!LO:TX:a:t=Solo	!
.	.	.	.	.	4d/	.	4f|</	.	.	.	.	.	.	.	.	.	.	.	.	.	(4dd\	.	4ff\	.
!	!	!	!	!	!	!	!	!	!	!	!	!	!	!	!	!	!	!	!	!	!	!LO:DY:b	!	!
2r	.	.	2r	.	4e-/	.	4g|</	.	.	.	.	.	.	.	.	.	.	.	.	.	4ee-\	p	4gg\	.
!	!	!	!	!	!	!LO:DY:b:rj	!	!	!	!	!	!	!	!	!	!	!	!	!	!	!	!	!	!
.	.	.	.	.	4f/	p	4a-|</	.	.	.	.	.	.	.	.	.	.	.	.	.	4ff\)	.	4aa-\	.
!	!	!	!	!	!	!	!	!	!	!	!	!	!	!	!	!	!	!	!	!	!LO:LB:g=original	!	!	!
=76	=76	=76	=76	=76	=76	=76	=76	=76	=76	=76	=76	=76	=76	=76	=76	=76	=76	=76	=76	=76	=76	=76	=76	=76
2r	.	.	2r	.	4e-/	.	4g/	.	.	.	.	.	.	.	.	.	.	.	.	.	4ee-\	.	4gg\	.
.	.	.	.	.	4d/	.	4f/	.	.	.	.	.	.	.	.	.	.	.	.	.	4dd\	.	4ff\	.
!	!	!	!	!	!LO:N:vis=2.	!	!	!	!	!	!	!	!	!	!	!	!	!	!	!	!LO:SIC:v:s=2dd\	!	!LO:N:vis=2.	!
2B-\	.	.	2B-/	.	[2d/	.	[2f/	.	.	.	.	.	.	.	.	.	.	.	.	.	2ee-\	.	[y2ff\	.
=77	=77	=77	=77	=77	=77	=77	=77	=77	=77	=77	=77	=77	=77	=77	=77	=77	=77	=77	=77	=77	=77	=77	=77	=77
!	!	!	!	!	!LO:N:xstem:cue	!	!LO:N:xstem:cue	!	!	!	!	!	!	!	!	!	!	!	!	!	!	!	!	!
2BB-/	.	.	2B-/	.	4d/]	.	4f/]	.	.	.	.	.	.	.	.	.	.	.	.	.	(4dd\	.	4ff\]yy	.
.	.	.	.	.	4e-/	.	4g|</	.	.	.	.	.	.	.	.	.	.	.	.	.	4ee-\	.	4gg\	.
2r	.	.	2r	.	(<4f/	.	4a-|</	.	.	.	.	.	.	.	.	.	.	.	.	.	4ff\	.	4aa-\	.
.	.	.	.	.	4g/)	.	4b-|</	.	.	.	.	.	.	.	.	.	.	.	.	.	4gg\)	.	4bb-\	.
!	!	!	!	!	!	!	!LO:LB:g=original	!	!	!	!	!	!	!	!	!	!	!	!	!	!	!	!	!
=78	=78	=78	=78	=78	=78	=78	=78	=78	=78	=78	=78	=78	=78	=78	=78	=78	=78	=78	=78	=78	=78	=78	=78	=78
*	*	*	*custos:e	*	*	*	*	*	*	*	*	*	*	*	*	*	*	*	*	*	*	*	*	*
2r	.	.	2r	.	4f/	.	4a-/	.	.	.	.	.	.	.	.	.	.	.	.	.	(4ff\	.	4aa-\	.
.	.	.	.	.	4e-/	.	4g/	.	.	.	.	.	.	.	.	.	.	.	.	.	4ee-\)	.	4gg\	.
!	!	!	!LO:PB:g=original	!	!	!	!	!	!	!	!	!	!	!	!	!	!	!	!	!	!	!	!	!
=-	=-	=-	=-	=-	=-	=-	=-	=-	=-	=-	=-	=-	=-	=-	=-	=-	=-	=-	=-	=-	=-	=-	=-	=-
!	!	!	!	!LO:DY:b:rj	!LO:N:vis=2.	!	!	!	!	!	!	!	!	!	!	!	!	!	!	!	!	!	!	!
2E-\	.	.	2e-\	p	[y2e-/	.	[2g/	.	.	.	.	.	.	.	.	.	.	.	.	.	2ee-\	.	2gg\	.
=79	=79	=79	=79	=79	=79	=79	=79	=79	=79	=79	=79	=79	=79	=79	=79	=79	=79	=79	=79	=79	=79	=79	=79	=79
!LO:TX:a:i:t=Tutti	!	!	!	!	!	!	!LO:N:xstem:cue	!	!	!	!	!	!	!	!	!	!	!	!	!	!	!	!LO:TX:a:t=4	!
4E-\	.	.	4e-|>\	.	4e-/]yy	.	4g/]	.	00r	.	00r	.	00r	.	00r	.	00r	.	00r	.	00r	.	00r	.
!	!	!	!	!LO:DY:b:rj	!	!LO:DY:b	!	!	!	!	!	!	!	!	!	!	!	!	!	!	!	!	!	!
4B-|>\	.	.	4B-|>\	f	4b-\	f	4b-|>\	.	.	.	.	.	.	.	.	.	.	.	.	.	.	.	.	.
4c|>\	.	.	4c|>\	.	4cc\	.	4cc|>\	.	.	.	.	.	.	.	.	.	.	.	.	.	.	.	.	.
4d|>\	.	.	4d|>\	.	4dd\	.	4dd|>\	.	.	.	.	.	.	.	.	.	.	.	.	.	.	.	.	.
=80	=80	=80	=80	=80	=80	=80	=80	=80	=80	=80	=80	=80	=80	=80	=80	=80	=80	=80	=80	=80	=80	=80	=80	=80
4e-|>\	.	.	4e-|>\	.	4ee-\	.	4ee-|>\	.	.	.	.	.	.	.	.	.	.	.	.	.	.	.	.	.
4d|>\	.	.	4d|>\	.	4dd\	.	4dd|>\	.	.	.	.	.	.	.	.	.	.	.	.	.	.	.	.	.
4c|>\	.	.	4c|>\	.	4cc\	.	4cc|>\	.	.	.	.	.	.	.	.	.	.	.	.	.	.	.	.	.
4B-|>\	.	.	4B-|>\	.	4b-\	.	4b-|>\	.	.	.	.	.	.	.	.	.	.	.	.	.	.	.	.	.
=81	=81	=81	=81	=81	=81	=81	=81	=81	=81	=81	=81	=81	=81	=81	=81	=81	=81	=81	=81	=81	=81	=81	=81	=81
4A-|>\	.	.	4A-/	.	4a-/	.	4a-|</	.	.	.	.	.	.	.	.	.	.	.	.	.	.	.	.	.
4G|>\	.	.	4G/	.	4g/	.	4g|</	.	.	.	.	.	.	.	.	.	.	.	.	.	.	.	.	.
4F|>\	.	.	4F/	.	4f/	.	4f|</	.	.	.	.	.	.	.	.	.	.	.	.	.	.	.	.	.
4E-|>\	.	.	4E-/	.	4e-/	.	4e-|</	.	.	.	.	.	.	.	.	.	.	.	.	.	.	.	.	.
=82	=82	=82	=82	=82	=82	=82	=82	=82	=82	=82	=82	=82	=82	=82	=82	=82	=82	=82	=82	=82	=82	=82	=82	=82
2B-\	.	.	2B-/	.	2b-\	.	2b-\	.	.	.	.	.	.	.	.	.	.	.	.	.	.	.	.	.
!LO:TX:b:t=pedale	!	!	!	!	!LO:N:vis=2.	!	!	!	!	!	!	!	!	!	!	!	!	!	!	!	!	!	!	!
2BB-/	.	.	2B-/	.	[2B-/	.	[2B-/	.	.	.	.	.	.	.	.	.	.	.	.	.	.	.	.	.
=83	=83	=83	=83	=83	=83	=83	=83	=83	=83	=83	=83	=83	=83	=83	=83	=83	=83	=83	=83	=83	=83	=83	=83	=83
!LO:TX:a:i:t=Solo	!	!	!	!	!	!	!LO:N:xstem:cue	!	!	!	!	!	!	!	!	!	!	!	!	!	!	!	!	!
2B-\	.	.	2B-/	.	4B-/]yy	.	4B-/]	.	00r	.	00r	.	00r	.	00r	.	00r	.	00r	.	4r	.	4r	.
!	!	!	!	!	!	!	!	!LO:DY:b	!	!	!	!	!	!	!	!	!	!	!	!	!	!	!	!
.	.	.	.	.	4d/)	.	4f|</	p	.	.	.	.	.	.	.	.	.	.	.	.	4dd\	.	4ff\	.
!	!	!	!	!	!	!LO:DY:b	!	!	!	!	!	!	!	!	!	!	!	!	!	!	!	!LO:DY:b	!	!
2r	.	.	2r	.	4e-/	p	4g|</	.	.	.	.	.	.	.	.	.	.	.	.	.	4ee-\	p	4gg\	.
.	.	.	.	.	(<4f/	.	4a-|</	.	.	.	.	.	.	.	.	.	.	.	.	.	4ff\	.	4aa-\	.
!	!	!	!	!	!LO:LB:g=original	!	!	!	!	!	!	!	!	!	!	!	!	!	!	!	!	!	!LO:LB:g=original	!
=84	=84	=84	=84	=84	=84	=84	=84	=84	=84	=84	=84	=84	=84	=84	=84	=84	=84	=84	=84	=84	=84	=84	=84	=84
2r	.	.	2r	.	4e-/)	.	(4g/	.	.	.	.	.	.	.	.	.	.	.	.	.	4ee-\	.	4gg\	.
.	.	.	.	.	4d/	.	4f/)	.	.	.	.	.	.	.	.	.	.	.	.	.	4dd\	.	4ff\	.
!	!	!	!	!LO:DY:b	!LO:N:vis=2.	!	!	!	!	!	!	!	!	!	!	!	!	!	!	!	!LO:N:vis=2.	!	!LO:N:vis=2.	!
2B-\	.	.	2B-/	p	[2d/	.	[2f/	.	.	.	.	.	.	.	.	.	.	.	.	.	[2dd\	.	[y2ff\	.
!	!	!	!LO:LB:g=original	!	!	!	!	!	!	!	!	!	!	!	!	!	!	!	!	!	!	!	!	!
=85	=85	=85	=85	=85	=85	=85	=85	=85	=85	=85	=85	=85	=85	=85	=85	=85	=85	=85	=85	=85	=85	=85	=85	=85
!	!	!	!	!	!	!	!LO:N:xstem:cue	!	!	!	!	!	!	!	!	!	!	!	!	!	!	!	!	!
2BB-/	.	.	2B-/	.	4d/]yy	.	4f/]	.	.	.	.	.	.	.	.	.	.	.	.	.	4dd\]yy	.	4ff\]yy	.
.	.	.	.	.	4e-/	.	4g/	.	.	.	.	.	.	.	.	.	.	.	.	.	4ee-\	.	4gg\	.
2r	.	.	2r	.	4f/	.	4a-/	.	.	.	.	.	.	.	.	.	.	.	.	.	4ff\	.	4aa-\	.
.	.	.	.	.	4g/	.	4b-/	.	.	.	.	.	.	.	.	.	.	.	.	.	4gg\	.	4bb-\	.
=86	=86	=86	=86	=86	=86	=86	=86	=86	=86	=86	=86	=86	=86	=86	=86	=86	=86	=86	=86	=86	=86	=86	=86	=86
2r	.	.	2r	.	4f/	.	4a-/	.	.	.	.	.	.	.	.	.	.	.	.	.	4ff\	.	4aa-\	.
.	.	.	.	.	4e-/	.	4g/	.	.	.	.	.	.	.	.	.	.	.	.	.	4ee-\	.	4gg\	.
2E-\	.	.	2e-\	.	2e-/	.	[2g/	.	.	.	.	.	.	.	.	.	.	.	.	.	2ee-\	.	2gg\	.
!LO:PB:g=original	!	!	!	!	!	!	!	!	!	!	!	!	!	!	!	!	!LO:LB:g=original	!	!	!	!LO:LB:g=original	!	!	!
=87	=87	=87	=87	=87	=87	=87	=87	=87	=87	=87	=87	=87	=87	=87	=87	=87	=87	=87	=87	=87	=87	=87	=87	=87
!	!	!	!	!	!	!	!LO:N:xstem:cue	!	!	!	!	!	!	!	!	!	!	!	!	!LO:DY:b	!	!	!	!
2EE-/	.	.	2E-/	.	2g/	.	4g/]	.	1r	.	1r	.	1r	.	1r	.	2r	.	2r	p	2ee-\	.	2gg\	.
.	.	.	.	.	.	.	4b-|>\	.	.	.	.	.	.	.	.	.	.	.	.	.	.	.	.	.
2r	.	.	2r	.	2r	.	4ee-|>\	.	.	.	.	.	.	.	.	.	2E-/	.	2e-\	.	2r	.	2r	.
.	.	.	.	.	.	.	4gg|>\	.	.	.	.	.	.	.	.	.	.	.	.	.	.	.	.	.
!	!	!	!	!	!	!	!LO:LB:g=original	!	!	!	!	!	!	!	!	!	!	!	!LO:LB:g=original	!	!	!	!	!
=88	=88	=88	=88	=88	=88	=88	=88	=88	=88	=88	=88	=88	=88	=88	=88	=88	=88	=88	=88	=88	=88	=88	=88	=88
*	*	*	*tremolo	*	*	*	*	*	*	*	*	*	*	*	*	*	*	*	*	*	*	*	*	*
!LO:TX:a:i:t=Tutti	!	!	!	!LO:DY:b	!	!LO:DY:b	!	!LO:DY:b:t=f.	!	!	!	!	!	!	!	!	!	!LO:DY:b:rj	!	!LO:DY:a	!	!	!	!LO:DY:b
2E-\	.	.	8e-\L	f	2g/	f	4bb-\	f	2E-\	Do-	2G/	Do-	2g\	Do-	2ee-\	Do-	2G/	f	2e-\	f	2dd\	.	1gg	f
.	.	.	8e-\	.	.	.	.	.	.	.	.	.	.	.	.	.	.	.	.	.	.	.	.	.
.	.	.	8e-\	.	.	.	4gg\	.	.	.	.	.	.	.	.	.	.	.	.	.	.	.	.	.
.	.	.	8e-\J	.	.	.	.	.	.	.	.	.	.	.	.	.	.	.	.	.	.	.	.	.
2G\	6	.	8e-\L	.	2B-/	.	4ee-\	.	2G\	-na	2G/	-na	2g\	-na	2ee-\	-na	2e-\	.	2g\	.	4ee-\	.	.	.
.	.	.	8e-\	.	.	.	.	.	.	.	.	.	.	.	.	.	.	.	.	.	.	.	.	.
.	5-	.	8e-\	.	.	.	4dd-X\	.	.	.	.	.	.	.	.	.	.	.	.	.	4dd-X\	.	.	.
.	.	.	8e-\J	.	.	.	.	.	.	.	.	.	.	.	.	.	.	.	.	.	.	.	.	.
=89	=89	=89	=89	=89	=89	=89	=89	=89	=89	=89	=89	=89	=89	=89	=89	=89	=89	=89	=89	=89	=89	=89	=89	=89
2A-\	5_ 3_	.	8e-\L	.	4A-/	.	2.cc\	.	2A-\	no-	2A-/	no-	2a-\	no-	2ee-\	no-	1e-	.	1a-	.	1cc	.	1aa-	.
.	.	.	8e-\	.	.	.	.	.	.	.	.	.	.	.	.	.	.	.	.	.	.	.	.	.
.	.	.	8e-\	.	4c/	.	.	.	.	.	.	.	.	.	.	.	.	.	.	.	.	.	.	.
.	.	.	8e-\J	.	.	.	.	.	.	.	.	.	.	.	.	.	.	.	.	.	.	.	.	.
2AA-/	x x	.	8e-\L	.	4e-/	.	.	.	2AA-/	-bis	2A-/	-biſ	2a-\	-bis	2ee-\	-bis	.	.	.	.	.	.	.	.
.	.	.	8e-\	.	.	.	.	.	.	.	.	.	.	.	.	.	.	.	.	.	.	.	.	.
.	.	.	8e-\	.	4c/	.	4aa-\	.	.	.	.	.	.	.	.	.	.	.	.	.	.	.	.	.
.	.	.	8e-\J	.	.	.	.	.	.	.	.	.	.	.	.	.	.	.	.	.	.	.	.	.
!	!	!	!	!	!	!	!	!	!LO:PB:g=original	!	!LO:LB:g=original	!	!	!	!	!	!	!	!	!	!	!	!	!
=90	=90	=90	=90	=90	=90	=90	=90	=90	=90	=90	=90	=90	=90	=90	=90	=90	=90	=90	=90	=90	=90	=90	=90	=90
*	*	*	*	*	*	*	*	*	*	*	*	*ij	*	*	*	*ij	*	*	*	*	*	*	*	*
!	!	!	!	!	!	!	!	!	!	!	!	!	!	!	!	!	!	!	!LO:N:vis=2	!	!LO:N:vis=2.	!	!	!
2F\	n	.	8f\L	.	2An/	.	4ccc\	.	2E-\	Do-	2An/	Do-	2f\	do-	2ff\	Do-	1f	.	1aX	.	2ff\	.	1aa	.
.	.	.	8f\	.	.	.	.	.	.	.	.	.	.	.	.	.	.	.	.	.	.	.	.	.
.	.	.	8f\	.	.	.	4aan\	.	.	.	.	.	.	.	.	.	.	.	.	.	.	.	.	.
.	.	.	8f\J	.	.	.	.	.	.	.	.	.	.	.	.	.	.	.	.	.	.	.	.	.
2An\	6 5	.	8f\L	.	2c/	.	4ff\	.	2An\	-na	2A/	-na	2an\	-na	2ff\	-na	.	.	.	.	4ff\	.	.	.
.	.	.	8f\	.	.	.	.	.	.	.	.	.	.	.	.	.	.	.	.	.	.	.	.	.
.	.	.	8f\	.	.	.	4ee-\	.	.	.	.	.	.	.	.	.	.	.	.	.	4ee-\	.	.	.
.	.	.	8f\J	.	.	.	.	.	.	.	.	.	.	.	.	.	.	.	.	.	.	.	.	.
!	!	!	!	!	!	!	!	!	!	!	!	!	!LO:LB:g=original	!	!	!	!	!	!	!	!	!	!LO:LB:g=original	!
=91	=91	=91	=91	=91	=91	=91	=91	=91	=91	=91	=91	=91	=91	=91	=91	=91	=91	=91	=91	=91	=91	=91	=91	=91
!	!	!	!	!	!	!	!	!	!	!	!	!	!	!	!LO:TX:t=P:problem=t. 91 zapisany jako repetycja	!	!	!	!	!	!	!	!	!
2B-\	3_	.	8f\L	.	4B-/	.	2.dd\	.	2B-\	no-	2B-\	no-	2b-\	no-	2ff\	no-	1B-	.	(2f\	.	1ddnX	.	1bb-	.
.	.	.	8f\	.	.	.	.	.	.	.	.	.	.	.	.	.	.	.	.	.	.	.	.	.
.	.	.	8f\	.	4d/	.	.	.	.	.	.	.	.	.	.	.	.	.	.	.	.	.	.	.
.	.	.	8f\J	.	.	.	.	.	.	.	.	.	.	.	.	.	.	.	.	.	.	.	.	.
2BB-/	x	.	8f\L	.	4f/	.	.	.	2BB-/	-bis	2B-\	-biſ	2b-\	-bis	2ff\	-bis	.	.	2g\)	.	.	.	.	.
*	*	*	*	*	*	*	*	*	*	*	*	*Xij	*	*	*	*Xij	*	*	*	*	*	*	*	*
.	.	.	8f\	.	.	.	.	.	.	.	.	.	.	.	.	.	.	.	.	.	.	.	.	.
.	.	.	8f\	.	4d/	.	4bb-\	.	.	.	.	.	.	.	.	.	.	.	.	.	.	.	.	.
.	.	.	8f\J	.	.	.	.	.	.	.	.	.	.	.	.	.	.	.	.	.	.	.	.	.
=92	=92	=92	=92	=92	=92	=92	=92	=92	=92	=92	=92	=92	=92	=92	=92	=92	=92	=92	=92	=92	=92	=92	=92	=92
*	*	*	*	*	*	*	*	*	*	*ij	*	*	*	*	*	*	*	*	*	*	*	*	*	*
!	!	!	!	!	!	!	!	!	!	!	!	!	!	!	!	!	!	!	!	!	!	!	!LO:N:vis=2	!
2G\	n	.	8d\L	.	2Bn/	.	4ddd\	.	2G\	Do-	2Bn\	Do-	2g\	do-	2ff\	do-	1G	.	1g	.	1dd	.	1bbX	.
.	.	.	8d\	.	.	.	.	.	.	.	.	.	.	.	.	.	.	.	.	.	.	.	.	.
.	.	.	8d\	.	.	.	4bbn\	.	.	.	.	.	.	.	.	.	.	.	.	.	.	.	.	.
.	.	.	8d\J	.	.	.	.	.	.	.	.	.	.	.	.	.	.	.	.	.	.	.	.	.
2Bn\	6 3	.	8d\L	.	2d/	.	4gg\	.	2Bn\	-na	2B\	-na	2bn\	-na	2ff\	-na	.	.	.	.	.	.	.	.
.	.	.	8d\	.	.	.	.	.	.	.	.	.	.	.	.	.	.	.	.	.	.	.	.	.
.	.	.	8d\	.	.	.	4ff\	.	.	.	.	.	.	.	.	.	.	.	.	.	.	.	.	.
.	.	.	8d\J	.	.	.	.	.	.	.	.	.	.	.	.	.	.	.	.	.	.	.	.	.
!	!	!	!LO:LB:g=original	!	!	!	!	!	!	!	!	!	!	!	!	!	!	!	!	!	!	!	!	!
=93	=93	=93	=93	=93	=93	=93	=93	=93	=93	=93	=93	=93	=93	=93	=93	=93	=93	=93	=93	=93	=93	=93	=93	=93
2c\	5 3	.	8g\L	.	4c/	.	2.ee-\	.	2c\	no-	2G/	no-	2cc\	no-	2ee-\	no-	1e-	.	1g	.	1ee-	.	1gg	.
.	.	.	8g\	.	.	.	.	.	.	.	.	.	.	.	.	.	.	.	.	.	.	.	.	.
.	.	.	8g\	.	4e-/	.	.	.	.	.	.	.	.	.	.	.	.	.	.	.	.	.	.	.
.	.	.	8g\J	.	.	.	.	.	.	.	.	.	.	.	.	.	.	.	.	.	.	.	.	.
2C/	.	.	8g\L	.	4g/	.	.	.	2C/	-bis	2G/	-bis	2cc\	-bis	2ee-\	-bis	.	.	.	.	.	.	.	.
*	*	*	*	*	*	*	*	*	*	*Xij	*	*	*	*	*	*	*	*	*	*	*	*	*	*
.	.	.	8g\	.	.	.	.	.	.	.	.	.	.	.	.	.	.	.	.	.	.	.	.	.
.	.	.	8g\	.	4e-/	.	4gg\	.	.	.	.	.	.	.	.	.	.	.	.	.	.	.	.	.
.	.	.	8g\J	.	.	.	.	.	.	.	.	.	.	.	.	.	.	.	.	.	.	.	.	.
=94	=94	=94	=94	=94	=94	=94	=94	=94	=94	=94	=94	=94	=94	=94	=94	=94	=94	=94	=94	=94	=94	=94	=94	=94
*	*	*	*	*	*	*	*	*	*	*	*	*ij	*	*	*	*ij	*	*	*	*	*	*	*	*
2F\	n	.	8f\L	.	2c/	.	4ccc\	.	2F\	do-	2An/	Do-	2f\	Do-	2ee-\	do-	1f	.	1f	.	1dd	.	1ff	.
.	.	.	8f\	.	.	.	.	.	.	.	.	.	.	.	.	.	.	.	.	.	.	.	.	.
.	.	.	8f\	.	.	.	4aan\	.	.	.	.	.	.	.	.	.	.	.	.	.	.	.	.	.
.	.	.	8f\J	.	.	.	.	.	.	.	.	.	.	.	.	.	.	.	.	.	.	.	.	.
2An\	6 5	.	8f\L	.	2c/	.	4ff\	.	2An\	-na	2A/	-na	2an\	-na	2ee-\	-na	.	.	.	.	.	.	.	.
.	.	.	8f\	.	.	.	.	.	.	.	.	.	.	.	.	.	.	.	.	.	.	.	.	.
.	.	.	8f\	.	.	.	4ee-\	.	.	.	.	.	.	.	.	.	.	.	.	.	.	.	.	.
.	.	.	8f\J	.	.	.	.	.	.	.	.	.	.	.	.	.	.	.	.	.	.	.	.	.
!	!	!	!	!	!LO:LB:g=original	!	!	!	!LO:LB:g=original	!	!	!	!	!	!	!	!	!	!	!	!	!	!	!
=95	=95	=95	=95	=95	=95	=95	=95	=95	=95	=95	=95	=95	=95	=95	=95	=95	=95	=95	=95	=95	=95	=95	=95	=95
2B-X\	.	.	8f\L	.	4B-/	.	2.dd\	.	2B-\	no-	2F/	no-	2b-X\	no-	2dd\	no-	1B-	.	1f	.	2.b-\	.	2.dd\	.
.	.	.	8f\	.	.	.	.	.	.	.	.	.	.	.	.	.	.	.	.	.	.	.	.	.
.	.	.	8f\	.	4d/	.	.	.	.	.	.	.	.	.	.	.	.	.	.	.	.	.	.	.
.	.	.	8f\J	.	.	.	.	.	.	.	.	.	.	.	.	.	.	.	.	.	.	.	.	.
2BB-/	.	.	8f\L	.	4f/	.	.	.	2BB-/	-bis	2F/	-bis	2b-\	-bis	2dd\	-bis	.	.	.	.	.	.	.	.
.	.	.	8f\	.	.	.	.	.	.	.	.	.	.	.	.	.	.	.	.	.	.	.	.	.
.	.	.	8f\	.	4d/	.	4ff\	.	.	.	.	.	.	.	.	.	.	.	.	.	4dd\	.	4ff\	.
.	.	.	8f\J	.	.	.	.	.	.	.	.	.	.	.	.	.	.	.	.	.	.	.	.	.
*	*	*	*Xtremolo	*	*	*	*	*	*	*	*	*	*	*	*	*	*	*	*	*	*	*	*	*
=96	=96	=96	=96	=96	=96	=96	=96	=96	=96	=96	=96	=96	=96	=96	=96	=96	=96	=96	=96	=96	=96	=96	=96	=96
*	*	*	*	*	*	*	*	*	*	*	*	*	*	*ij	*	*	*	*	*	*	*	*	*	*
!	!	!	!	!	!	!	!	!LO:DY:b:t=f.	!	!	!	!	!	!	!	!	!	!	!	!	!	!	!	!
1E-	5 3	.	1B-	.	2B-/	.	4bb-\	f	2E-\	Do-	2B-\	Do-	2g\	Do-	2gg\	do-	1e-	.	1g	.	1ee-	.	1gg	.
.	.	.	.	.	.	.	4gg\	.	.	.	.	.	.	.	.	.	.	.	.	.	.	.	.	.
.	.	.	.	.	2B-/	.	4ee-\	.	2E-\	-na	2B-\	-na	2ee-\	-na	2gg\	-na	.	.	.	.	.	.	.	.
.	.	.	.	.	.	.	4gg\	.	.	.	.	.	.	.	.	.	.	.	.	.	.	.	.	.
!	!	!	!	!	!	!	!LO:LB:g=original	!	!	!	!	!	!	!	!	!	!	!	!	!	!	!	!	!
=97	=97	=97	=97	=97	=97	=97	=97	=97	=97	=97	=97	=97	=97	=97	=97	=97	=97	=97	=97	=97	=97	=97	=97	=97
1D	6 5- 3	.	1B-	.	[2B-/	.	4aa-X\	.	2D\	no-	2B-\	no-	2dd\	no-	2ff\	no-	1d	.	1f	.	1dd	.	1ff	.
.	.	.	.	.	.	.	4ff\	.	.	.	.	.	.	.	.	.	.	.	.	.	.	.	.	.
.	.	.	.	.	2B-/]	.	4dd\	.	2D\	-bis	2B-\	-bis	2dd\	-bis	2ff\	-bis	.	.	.	.	.	.	.	.
*	*	*	*	*	*	*	*	*	*	*	*	*	*	*Xij	*	*Xij	*	*	*	*	*	*	*	*
.	.	.	.	.	.	.	4ff\	.	.	.	.	.	.	.	.	.	.	.	.	.	.	.	.	.
!LO:LB:g=original	!	!	!	!	!	!	!	!	!	!	!	!	!	!	!	!	!	!	!	!	!LO:LB:g=original	!	!	!
=98	=98	=98	=98	=98	=98	=98	=98	=98	=98	=98	=98	=98	=98	=98	=98	=98	=98	=98	=98	=98	=98	=98	=98	=98
!	!	!	!	!	!	!	!	!	!	!	!LO:TX:t=P:problem=t.98-99 zapisane jako repetycja	!	!	!	!	!	!	!	!	!	!	!	!	!
2E-\	.	.	1B-	.	4e-/	.	4gg\	.	2E-\	pa-	2B-\	Do-	2ee-\	pa-	2gg\	pa-	2e-\	.	2g\	.	2ee-\	.	2gg\	.
.	.	.	.	.	4g/	.	4ee-\	.	.	.	.	.	.	.	.	.	.	.	.	.	.	.	.	.
!	!	!	!	!	!	!	!	!	!	!	!	!	!	!	!	!	!LO:SIC:v:s=2B-/	!	!	!	!	!	!	!
2BB-\	7	.	.	.	4d/	.	4ff\	.	2BB-/	-cem	2B-\	-na	2dd\	-cem	2ff\	-cem	2c/	.	2f\	.	2dd\	.	2ff\	.
.	.	.	.	.	4f/	.	4dd\	.	.	.	.	.	.	.	.	.	.	.	.	.	.	.	.	.
!	!	!	!	!	!	!	!	!	!	!	!	!	!LO:LB:g=original	!	!	!	!	!	!	!	!	!	!	!
=99	=99	=99	=99	=99	=99	=99	=99	=99	=99	=99	=99	=99	=99	=99	=99	=99	=99	=99	=99	=99	=99	=99	=99	=99
!	!	!	!	!	!LO:TX:t=P:problem=t. 99 zapisany jako repetycja	!	!	!	!	!	!	!	!	!	!	!	!	!	!	!	!	!	!	!
2E-\	.	.	1B-	.	4e-/	.	4gg\	.	2E-\	pa-	2B-\	no-	(2ee-\	pa-	(2gg\	pa-	2e-\	.	2g\	.	2ee-\	.	2gg\	.
.	.	.	.	.	4g/	.	4ee-\	.	.	.	.	.	.	.	.	.	.	.	.	.	.	.	.	.
2BB-\	7	.	.	.	4d/	.	4ff\	.	2B-\	.	2B-\	-bis	2dd\)	.	2ff\)	.	2B-/	.	2f\	.	2dd\	.	2ff\	.
*	*	*	*	*	*	*	*	*	*	*	*	*Xij	*	*	*	*	*	*	*	*	*	*	*	*
.	.	.	.	.	4f/	.	4dd\	.	.	.	.	.	.	.	.	.	.	.	.	.	.	.	.	.
!	!	!	!	!	!	!	!	!	!LO:LB:g=original	!	!	!	!	!	!LO:LB:g=original	!	!	!	!LO:LB:g=original	!	!	!	!LO:LB:g=original	!
=100	=100	=100	=100	=100	=100	=100	=100	=100	=100	=100	=100	=100	=100	=100	=100	=100	=100	=100	=100	=100	=100	=100	=100	=100
!	!	!	!	!	!	!LO:DY:b	!	!	!LO:TX:a:t=Solo	!	!	!	!	!	!	!	!	!	!	!	!	!	!	!
2E-\	.	.	2B-/	.	2g/	p	2ee-\	.	2E-\	-cem	2G/	.	2b-\	-cem	2ee-\	-cem	2G/	.	2e-\	.	2b-\	.	2ee-\	.
2r	.	.	2r	.	4G/	.	4e-/	.	4E-\	do-	2r	.	2r	.	2r	.	2r	.	2r	.	2r	.	2r	.
.	.	.	.	.	4G/	.	4e-/	.	4E-\	-na	.	.	.	.	.	.	.	.	.	.	.	.	.	.
!	!	!	!	!	!	!	!	!	!	!	!LO:LB:g=original	!	!	!	!	!	!	!	!	!	!	!	!	!
=101	=101	=101	=101	=101	=101	=101	=101	=101	=101	=101	=101	=101	=101	=101	=101	=101	=101	=101	=101	=101	=101	=101	=101	=101
!LO:TX:b:t=pedale	!	!	!	!	!	!	!	!	!	!	!	!	!	!	!	!	!	!	!	!	!	!	!	!
!LO:TX:a:i:t=Solo	!	!	!LO:TX:a:t=3	!	!	!	!	!	!	!	!	!	!	!	!	!	!LO:TX:a:t=15	!	!LO:TX:a:t=15	!	!LO:TX:a:t=3	!	!LO:TX:a:t=3	!
1E-	.	.	0r	.	4G/	.	2g/	.	2G\	no-	00r	.	0r	.	0r	.	00r	.	00r	.	0r	.	0r	.
.	.	.	.	.	4B-/	.	.	.	.	.	.	.	.	.	.	.	.	.	.	.	.	.	.	.
.	.	.	.	.	4G/	.	2e-/	.	2E-\	-bis	.	.	.	.	.	.	.	.	.	.	.	.	.	.
.	.	.	.	.	4B-/	.	.	.	.	.	.	.	.	.	.	.	.	.	.	.	.	.	.	.
=102	=102	=102	=102	=102	=102	=102	=102	=102	=102	=102	=102	=102	=102	=102	=102	=102	=102	=102	=102	=102	=102	=102	=102	=102
1E-	.	.	.	.	4G/	.	1b-	.	1B-	pa-	.	.	.	.	.	.	.	.	.	.	.	.	.	.
.	.	.	.	.	4B-/	.	.	.	.	.	.	.	.	.	.	.	.	.	.	.	.	.	.	.
.	.	.	.	.	4G/	.	.	.	.	.	.	.	.	.	.	.	.	.	.	.	.	.	.	.
.	.	.	.	.	4B-/	.	.	.	.	.	.	.	.	.	.	.	.	.	.	.	.	.	.	.
=103	=103	=103	=103	=103	=103	=103	=103	=103	=103	=103	=103	=103	=103	=103	=103	=103	=103	=103	=103	=103	=103	=103	=103	=103
!	!	!	!	!	!LO:TX:t=P:problem=t. 103-104 zapisane jako repetycja	!	!	!	!	!	!	!	!	!	!	!	!	!	!	!	!	!	!	!
1E-	.	.	1r	.	4G/	.	2g/	.	2G\	.	.	.	1r	.	1r	.	.	.	.	.	1r	.	1r	.
.	.	.	.	.	4B-/	.	.	.	.	.	.	.	.	.	.	.	.	.	.	.	.	.	.	.
.	.	.	.	.	4G/	.	2e-/	.	2E-\	-cem	.	.	.	.	.	.	.	.	.	.	.	.	.	.
.	.	.	.	.	4B-/	.	.	.	.	.	.	.	.	.	.	.	.	.	.	.	.	.	.	.
=104	=104	=104	=104	=104	=104	=104	=104	=104	=104	=104	=104	=104	=104	=104	=104	=104	=104	=104	=104	=104	=104	=104	=104	=104
!	!	!	!	!	!	!	!	!	!	!	!	!	!LO:TX:a:t=Solo	!	!	!	!	!	!	!	!	!	!	!
1BB-	.	.	1b-	.	4G/	.	2d/	.	00r	.	.	.	2r	.	2r	.	.	.	.	.	2r	.	2r	.
.	.	.	.	.	4B-/	.	.	.	.	.	.	.	.	.	.	.	.	.	.	.	.	.	.	.
!	!	!	!	!	!	!	!	!LO:DY:b:rj	!	!	!	!	!	!	!	!	!	!	!	!	!	!	!	!LO:DY:b
.	.	.	.	.	4G/	.	4f|</	p	.	.	.	.	4dd\	Do-	4ff\	Do-	.	.	.	.	4dd\	.	4ff\	p
.	.	.	.	.	4B-/	.	4f|</	.	.	.	.	.	4dd\	-na	4ff\	-na	.	.	.	.	4dd\	.	4ff\	.
=105	=105	=105	=105	=105	=105	=105	=105	=105	=105	=105	=105	=105	=105	=105	=105	=105	=105	=105	=105	=105	=105	=105	=105	=105
!	!	!	!	!	!	!	!	!	!	!	!	!	!	!	!	!	!	!	!	!	!LO:SIC:v:s=2dd\	!	!	!
1BB-	.	.	1b-	.	2d/	.	2f/	.	.	.	00r	.	2dd\	no-	2ff\	no-	00r	.	00r	.	2ee-\	.	2ff\	.
.	.	.	.	.	2e-/	.	2g/	.	.	.	.	.	2ee-\	-bis	2gg\	-bis	.	.	.	.	2ee-\	.	2gg\	.
!	!	!	!LO:LB:g=original	!	!	!	!	!	!	!	!	!	!	!	!	!	!	!	!	!	!	!	!	!
=106	=106	=106	=106	=106	=106	=106	=106	=106	=106	=106	=106	=106	=106	=106	=106	=106	=106	=106	=106	=106	=106	=106	=106	=106
1BB-	.	.	1b-	.	1f	.	1a-	.	.	.	.	.	1ff	pa-	1aa-	pa-	.	.	.	.	1ff	.	1aa-	.
=107	=107	=107	=107	=107	=107	=107	=107	=107	=107	=107	=107	=107	=107	=107	=107	=107	=107	=107	=107	=107	=107	=107	=107	=107
1BB-	.	.	1b-	.	2e-/	.	2g/	.	.	.	.	.	2ee-\	.	2gg\	.	.	.	.	.	2ee-\	.	2gg\	.
.	.	.	.	.	2d/	.	2f/	.	.	.	.	.	2dd\	-cem	2ff\	-cem	.	.	.	.	2dd\	.	2ff\	.
!	!	!	!	!	!	!	!LO:LB:g=original	!	!	!	!	!	!	!	!	!	!	!	!	!	!	!	!	!
=108	=108	=108	=108	=108	=108	=108	=108	=108	=108	=108	=108	=108	=108	=108	=108	=108	=108	=108	=108	=108	=108	=108	=108	=108
!	!	!	!LO:TX:a:t=4	!	!	!	!	!	!	!	!	!	!LO:TX:a:t=4	!	!	!	!	!	!	!	!	!	!	!
1E-	.	.	00r	.	2e-/	.	2e-/	.	2r	.	.	.	00r	.	00r	.	.	.	.	.	2b-\	.	2ee-\	.
!	!	!	!	!	!	!	!	!LO:DY:b:t=f.	!	!	!	!	!	!	!	!	!	!	!	!	!	!	!	!
.	.	.	.	.	4G/	.	4e-/	f	4E-\	do-	.	.	.	.	.	.	.	.	.	.	2r	.	2r	.
.	.	.	.	.	4B-/	.	4e-/	.	4E-\	-na	.	.	.	.	.	.	.	.	.	.	.	.	.	.
!	!	!	!	!	!LO:LB:g=original	!	!	!	!	!	!	!	!	!	!	!	!	!	!	!	!LO:LB:g=original	!	!	!
=109	=109	=109	=109	=109	=109	=109	=109	=109	=109	=109	=109	=109	=109	=109	=109	=109	=109	=109	=109	=109	=109	=109	=109	=109
!	!	!	!	!	!	!	!	!	!	!	!	!	!	!	!	!	!	!	!	!	!LO:TX:a:t=3	!	!LO:TX:a:t=3	!
1E-	.	.	.	.	4G/	.	(4g/	.	(4G\	no-	00r	.	.	.	.	.	00r	.	00r	.	0r	.	0r	.
.	.	.	.	.	4B-/	.	4f/)	.	4F\)	.	.	.	.	.	.	.	.	.	.	.	.	.	.	.
!	!	!	!	!	!	!	!	!	!LO:LB:g=original	!	!	!	!	!	!	!	!	!	!	!	!	!	!	!
=-	=-	=-	=-	=-	=-	=-	=-	=-	=-	=-	=-	=-	=-	=-	=-	=-	=-	=-	=-	=-	=-	=-	=-	=-
.	.	.	.	.	4G/	.	(4g/	.	(4G\	-bis	.	.	.	.	.	.	.	.	.	.	.	.	.	.
.	.	.	.	.	4B-/	.	4e-/)	.	4E-\)	.	.	.	.	.	.	.	.	.	.	.	.	.	.	.
=110	=110	=110	=110	=110	=110	=110	=110	=110	=110	=110	=110	=110	=110	=110	=110	=110	=110	=110	=110	=110	=110	=110	=110	=110
!	!	!	!	!	!LO:TX:t=P:problem=t. 110  zapisany jako repetycja	!	!	!	!	!	!	!	!	!	!	!	!	!	!	!	!	!	!	!
1E-	.	.	.	.	4G/	.	1b-	.	1B-	Pa-	.	.	.	.	.	.	.	.	.	.	.	.	.	.
.	.	.	.	.	4B-/	.	.	.	.	.	.	.	.	.	.	.	.	.	.	.	.	.	.	.
.	.	.	.	.	4G/	.	.	.	.	.	.	.	.	.	.	.	.	.	.	.	.	.	.	.
.	.	.	.	.	4B-/	.	.	.	.	.	.	.	.	.	.	.	.	.	.	.	.	.	.	.
=111	=111	=111	=111	=111	=111	=111	=111	=111	=111	=111	=111	=111	=111	=111	=111	=111	=111	=111	=111	=111	=111	=111	=111	=111
1E-	.	.	.	.	(4G/	.	2g/	.	2G\	.	.	.	.	.	.	.	.	.	.	.	1r	.	1r	.
.	.	.	.	.	4B-/)	.	.	.	.	.	.	.	.	.	.	.	.	.	.	.	.	.	.	.
.	.	.	.	.	(4G/	.	2e-/	.	2E-\	-cem	.	.	.	.	.	.	.	.	.	.	.	.	.	.
.	.	.	.	.	4B-/)	.	.	.	.	.	.	.	.	.	.	.	.	.	.	.	.	.	.	.
!	!	!	!	!	!	!	!	!	!	!	!	!	!LO:LB:g=original	!	!	!	!	!	!	!	!	!	!LO:LB:g=original	!
=112	=112	=112	=112	=112	=112	=112	=112	=112	=112	=112	=112	=112	=112	=112	=112	=112	=112	=112	=112	=112	=112	=112	=112	=112
!	!	!	!	!	!	!	!	!	!	!	!	!	!LO:TX:a:t=Solo	!	!	!	!	!	!	!	!	!	!	!
1BB-	.	.	1b-	.	2B-/	.	2d/	.	00r	.	.	.	2r	.	2r	.	.	.	.	.	2r	.	2r	.
!	!	!	!	!	!	!	!	!LO:DY:b	!	!	!	!	!	!	!	!	!	!	!	!	!	!	!	!
.	.	.	.	.	4d/	.	4f|</	p	.	.	.	.	4dd\	Do-	4ff\	Do-	.	.	.	.	4dd\	.	4ff\	.
.	.	.	.	.	4d/	.	4f|</	.	.	.	.	.	4dd\	-na	4ff\	-na	.	.	.	.	4dd\	.	4ff\	.
=113	=113	=113	=113	=113	=113	=113	=113	=113	=113	=113	=113	=113	=113	=113	=113	=113	=113	=113	=113	=113	=113	=113	=113	=113
!	!	!	!	!LO:DY:b	!	!LO:DY:b:rj	!	!	!	!	!	!	!	!	!	!	!	!	!	!	!	!	!	!
1BB-	.	.	1b-	p	2d/	p	2f/	.	.	.	0r	.	2dd\	no-	2ff\	no-	0r	.	0r	.	2dd\	.	2ff\	.
.	.	.	.	.	2e-/	.	2g/	.	.	.	.	.	2ee-\	-bis	2gg\	-bis	.	.	.	.	2ee-\	.	2gg\	.
!LO:LB:g=original	!	!	!	!	!	!	!	!	!	!	!	!	!	!	!	!	!	!	!	!	!	!	!	!
=114	=114	=114	=114	=114	=114	=114	=114	=114	=114	=114	=114	=114	=114	=114	=114	=114	=114	=114	=114	=114	=114	=114	=114	=114
1BB-	.	.	1b-	.	2f/	.	(2a-/	.	.	.	.	.	2ff\	pa-	2aa-\	pa-	.	.	.	.	2ff\	.	2aa-\	.
.	.	.	.	.	2e-/	.	2g/)	.	.	.	.	.	2ee-\	.	2gg\	.	.	.	.	.	2ee-\	.	2gg\	.
=115	=115	=115	=115	=115	=115	=115	=115	=115	=115	=115	=115	=115	=115	=115	=115	=115	=115	=115	=115	=115	=115	=115	=115	=115
1BB-	.	.	1b-	.	2f/	.	(2a-/	.	.	.	1r	.	2ff\	.	2aa-\	.	1r	.	1r	.	2ff\	.	2aa-\	.
.	.	.	.	.	2d/	.	2f/)	.	.	.	.	.	2dd\	-cem	2ff\	-cem	.	.	.	.	2dd\	.	2ff\	.
!	!	!	!	!	!	!	!	!	!	!	!	!	!	!	!	!	!LO:LB:g=original	!	!	!	!	!	!	!
=116	=116	=116	=116	=116	=116	=116	=116	=116	=116	=116	=116	=116	=116	=116	=116	=116	=116	=116	=116	=116	=116	=116	=116	=116
*	*	*	*	*	*tremolo	*	*	*	*	*	*	*	*	*	*	*	*	*	*	*	*	*	*	*
!LO:TX:a:i:t=Tutti	!	!	!	!	!	!	!	!	!	!	!	!	!	!	!	!	!	!	!	!	!	!	!	!
!	!	!LO:DY:b:t=f.	!	!	!	!	!	!LO:DY:b:t=f.:rj	!	!	!	!	!	!	!	!	!	!LO:DY:b:rj	!	!LO:DY:b	!	!	!	!
4E-\	.	f	4B-/	.	8e-/L	.	8ee-|>\L	f	4E-\	Do-	4G/	Do-	4b-\	do-	4ee-\	Do-	1E-	f	1e-	f	2.ee-\	.	2.gg\	.
.	.	.	.	.	8e-/	.	8e-|>\	.	.	.	.	.	.	.	.	.	.	.	.	.	.	.	.	.
!	!	!	!	!LO:DY:b	!	!	!	!	!	!	!	!	!	!	!	!	!	!	!	!	!	!	!	!
4E-\	.	.	4B-/	f	8e-/	.	8ee-|>\	.	4E-\	-na	4G/	-na	4b-\	-na	4ee-\	-na	.	.	.	.	.	.	.	.
.	.	.	.	.	8e-/J	.	8e-|>\J	.	.	.	.	.	.	.	.	.	.	.	.	.	.	.	.	.
4G\	.	.	4B-/	.	8e-/L	.	8ee-|>\L	.	4G\	no-	4G/	no-	4b-\	no-	4ee-\	no-	.	.	.	.	.	.	.	.
.	.	.	.	.	8e-/	.	8e-|>\	.	.	.	.	.	.	.	.	.	.	.	.	.	.	.	.	.
!	!	!	!	!	!	!	!	!	!	!	!	!	!	!	!	!	!	!	!	!	!	!	!	!LO:DY:b:t=f.:rj
4E-\	.	.	4B-/	.	8e-/	.	8b-|>\	.	4E-\	-bis	4G/	-biſ	4g\	-biſ	4b-\	-biſ	.	.	.	.	4b-\	.	4gg\	f
.	.	.	.	.	8e-/J	.	8e-|>\J	.	.	.	.	.	.	.	.	.	.	.	.	.	.	.	.	.
!	!	!	!	!	!	!	!	!	!	!	!	!	!	!	!LO:LB:g=original	!	!	!	!	!	!	!	!	!
=117	=117	=117	=117	=117	=117	=117	=117	=117	=117	=117	=117	=117	=117	=117	=117	=117	=117	=117	=117	=117	=117	=117	=117	=117
4A-\	5_ 3	.	4A-/	.	8e-/L	.	8cc|>\L	.	4A-\	pa-	4A-/	pa-	4a-\	pa-	4cc\	pa-	2E-/	.	2e-\	.	4cc\	.	4aa-\	.
.	.	.	.	.	8e-/	.	8e-|>\	.	.	.	.	.	.	.	.	.	.	.	.	.	.	.	.	.
4G\	x 3	.	4B-/	.	8e-/	.	8b-|>\	.	4G\	.	4G/	.	4g\	.	4b-\	.	.	.	.	.	4b-\	.	4gg\	.
.	.	.	.	.	8e-/J	.	8e-|>\J	.	.	.	.	.	.	.	.	.	.	.	.	.	.	.	.	.
*	*	*	*	*	*Xtremolo	*	*	*	*	*	*	*	*	*	*	*	*	*	*	*	*	*	*	*
4F\	7	.	4c/	.	8a-/L	.	8cc|>\L	.	4F\	.	4F/	.	4a-\	.	4cc\	.	2r	.	2r	.	4cc\	.	4ff\	.
.	.	.	.	.	8a-/	.	8cc|>\	.	.	.	.	.	.	.	.	.	.	.	.	.	.	.	.	.
4B-\	7	.	4d/	.	8b-/	.	8dd|>\	.	4B-\	-cem	4F/	-cem	4f\	-cem	4ddn\	-cem	.	.	.	.	4dd\	.	4bb-\	.
.	.	.	.	.	8b-/J	.	8b-|>\J	.	.	.	.	.	.	.	.	.	.	.	.	.	.	.	.	.
!	!	!	!	!	!	!	!LO:LB:g=original	!	!	!	!	!	!	!	!	!	!	!	!	!	!	!	!	!
=118	=118	=118	=118	=118	=118	=118	=118	=118	=118	=118	=118	=118	=118	=118	=118	=118	=118	=118	=118	=118	=118	=118	=118	=118
*	*	*	*	*	*tremolo	*	*	*	*	*	*	*	*	*	*	*	*	*	*	*	*	*	*	*
!	!	!	!	!	!LO:TX:t=P:problem=t. 118-119 zapisane jako repetycja	!	!	!	!	!	!	!	!	!	!LO:TX:t=P:problem=t. 118-119 zapisane jako repetycja	!	!LO:TX:t=P:problem=t. 118-119 zapisane jako repetycja	!	!	!	!	!	!	!
4E-\	5_ 3_	.	4B-/	.	8e-/L	.	8ee-|>\L	.	4E-\	Do-	4G/	do-	4g\	do-	4ee-\	Do-	1E-	.	1e-	.	2.ee-\	.	2.gg\	.
.	.	.	.	.	8e-/	.	8e-|>\	.	.	.	.	.	.	.	.	.	.	.	.	.	.	.	.	.
4E-\	.	.	4B-/	.	8e-/	.	8ee-|>\	.	4E-\	-na	4G/	-na	4g\	-na	4ee-\	-na	.	.	.	.	.	.	.	.
.	.	.	.	.	8e-/J	.	8e-|>\J	.	.	.	.	.	.	.	.	.	.	.	.	.	.	.	.	.
4G\	x x	.	4B-/	.	8e-/L	.	8ee-|>\L	.	4G\	no-	4G/	no-	4g\	no-	4ee-\	no-	.	.	.	.	.	.	.	.
.	.	.	.	.	8e-/	.	8e-\	.	.	.	.	.	.	.	.	.	.	.	.	.	.	.	.	.
4E-\	.	.	4B-/	.	8e-/	.	8b-|>\	.	4E-\	-biſ	4G/	-biſ	4b-\	-biſ	4b-\	-biſ	.	.	.	.	4b-\	.	4gg\	.
.	.	.	.	.	8e-/J	.	8e-|>\J	.	.	.	.	.	.	.	.	.	.	.	.	.	.	.	.	.
!	!	!	!LO:LB:g=original	!	!	!	!	!	!LO:LB:g=original	!	!	!	!LO:LB:g=original	!	!	!	!	!	!	!	!	!	!LO:PB:g=original	!
=119	=119	=119	=119	=119	=119	=119	=119	=119	=119	=119	=119	=119	=119	=119	=119	=119	=119	=119	=119	=119	=119	=119	=119	=119
4A-\	5_ 3	.	4A-/	.	8e-/L	.	8cc|>\L	.	4A-\	pa-	4A-/	pa-	4a-\	pa-	4cc\	pa-	2E-/	.	2e-\	.	4cc|>\	.	4aa-\	.
.	.	.	.	.	8e-/	.	8e-|>\	.	.	.	.	.	.	.	.	.	.	.	.	.	.	.	.	.
4G\	x 3	.	4B-/	.	8e-/	.	8b-|>\	.	4G\	.	4G/	.	4g\	.	4b-\	.	.	.	.	.	4b-|>\	.	4gg\	.
.	.	.	.	.	8e-/J	.	8e-|>\J	.	.	.	.	.	.	.	.	.	.	.	.	.	.	.	.	.
*	*	*	*	*	*Xtremolo	*	*	*	*	*	*	*	*	*	*	*	*	*	*	*	*	*	*	*
4F\	7	.	4c/	.	8a-/L	.	8cc|>\L	.	4F\	.	4F/	.	4a-\	.	4cc\	.	2r	.	2r	.	4cc|>\	.	4ff\	.
.	.	.	.	.	8a-/	.	8cc|>\	.	.	.	.	.	.	.	.	.	.	.	.	.	.	.	.	.
4B-\	7	.	4d/	.	8b-/	.	8dd|>\	.	4B-\	.	4F/	-cem	4f\	-cem	4ddn\	-cem	.	.	.	.	4dd|>\	.	4bb-\	.
.	.	.	.	.	8b-/J	.	8b-|>\J	.	.	.	.	.	.	.	.	.	.	.	.	.	.	.	.	.
!	!	!	!	!	!	!	!	!	!	!	!	!	!	!	!	!	!	!	!	!	!LO:LB:g=original	!	!	!
=120	=120	=120	=120	=120	=120	=120	=120	=120	=120	=120	=120	=120	=120	=120	=120	=120	=120	=120	=120	=120	=120	=120	=120	=120
2E-\	.	.	2B-/	.	2g/	.	2ee-\	.	2E-\	.	2B-\	pa-	2g\	pa-	2ee-\	pa-	2G/	.	2e-\	.	2ee-\	.	2gg\	.
!	!	!	!	!	!LO:SIC:v:n=1:s=2g	!	!	!LO:DY:b:rj	!	!	!	!	!	!	!	!	!	!	!	!LO:DY:b:rj	!	!	!	!
2E-\	.	.	2B-/	.	2B-/ 2f	.	2e-/ 2ee-	f	2E-\	-cem	2B-\	-cem	2g\	-cem	2ee-\	-cem	2G/	.	2e-\	p	2ee-\	.	2gg\	.
=121	=121	=121	=121	=121	=121	=121	=121	=121	=121	=121	=121	=121	=121	=121	=121	=121	=121	=121	=121	=121	=121	=121	=121	=121
!	!	!	!LO:TX:a:t=5	!	!	!	!	!	!	!	!	!	!	!	!	!	!	!	!LO:TX:a:t=5	!	!LO:TX:a:t=5	!	!LO:TX:a:t=5	!
0r	.	.	00r	.	2r	.	2r	.	00r	.	00r	.	00r	.	00r	.	00r	.	00r	.	00r	.	00r	.
!	!	!	!	!	!	!LO:DY:b	!	!LO:DY:b:rj	!	!	!	!	!	!	!	!	!	!	!	!	!	!	!	!
.	.	.	.	.	4ee-\	p	4gg|>\	p	.	.	.	.	.	.	.	.	.	.	.	.	.	.	.	.
.	.	.	.	.	4r	.	4r	.	.	.	.	.	.	.	.	.	.	.	.	.	.	.	.	.
=122	=122	=122	=122	=122	=122	=122	=122	=122	=122	=122	=122	=122	=122	=122	=122	=122	=122	=122	=122	=122	=122	=122	=122	=122
.	.	.	.	.	4dd\	.	4ff|>\	.	.	.	.	.	.	.	.	.	.	.	.	.	.	.	.	.
.	.	.	.	.	4r	.	4r	.	.	.	.	.	.	.	.	.	.	.	.	.	.	.	.	.
.	.	.	.	.	4cc\	.	4ee-|>\	.	.	.	.	.	.	.	.	.	.	.	.	.	.	.	.	.
.	.	.	.	.	4r	.	4r	.	.	.	.	.	.	.	.	.	.	.	.	.	.	.	.	.
=123	=123	=123	=123	=123	=123	=123	=123	=123	=123	=123	=123	=123	=123	=123	=123	=123	=123	=123	=123	=123	=123	=123	=123	=123
!LO:TX:a:i:t=Solo	!	!	!	!	!	!	!	!	!	!	!	!	!	!	!	!	!	!	!	!	!	!	!	!
1r	.	.	.	.	4b-/	.	4dd\	.	.	.	.	.	.	.	.	.	.	.	.	.	.	.	.	.
.	.	.	.	.	4r	.	4r	.	.	.	.	.	.	.	.	.	.	.	.	.	.	.	.	.
.	.	.	.	.	4a-/	.	4cc\	.	.	.	.	.	.	.	.	.	.	.	.	.	.	.	.	.
.	.	.	.	.	4r	.	4r	.	.	.	.	.	.	.	.	.	.	.	.	.	.	.	.	.
!	!	!	!	!	!LO:LB:g=original	!	!	!	!	!	!	!	!	!	!	!	!	!	!	!	!	!	!	!
=124	=124	=124	=124	=124	=124	=124	=124	=124	=124	=124	=124	=124	=124	=124	=124	=124	=124	=124	=124	=124	=124	=124	=124	=124
1BB-	8 6	.	.	.	4g/	.	4b-\	.	.	.	.	.	.	.	.	.	.	.	.	.	.	.	.	.
.	.	.	.	.	4r	.	4r	.	.	.	.	.	.	.	.	.	.	.	.	.	.	.	.	.
.	7 5	.	.	.	4f/	.	4a-\	.	.	.	.	.	.	.	.	.	.	.	.	.	.	.	.	.
.	.	.	.	.	4r	.	4r	.	.	.	.	.	.	.	.	.	.	.	.	.	.	.	.	.
=125	=125	=125	=125	=125	=125	=125	=125	=125	=125	=125	=125	=125	=125	=125	=125	=125	=125	=125	=125	=125	=125	=125	=125	=125
2E-\	.	.	1r	.	4e-/	.	4g/	.	1r	.	1r	.	1r	.	1r	.	1r	.	1r	.	1r	.	1r	.
.	.	.	.	.	4r	.	4r	.	.	.	.	.	.	.	.	.	.	.	.	.	.	.	.	.
2G\	6	.	.	.	4G/	.	4e-/	.	.	.	.	.	.	.	.	.	.	.	.	.	.	.	.	.
.	.	.	.	.	4r	.	4r	.	.	.	.	.	.	.	.	.	.	.	.	.	.	.	.	.
!	!	!	!	!	!	!	!LO:LB:g=original	!	!	!	!	!	!	!	!	!	!	!	!	!	!	!	!	!
=126	=126	=126	=126	=126	=126	=126	=126	=126	=126	=126	=126	=126	=126	=126	=126	=126	=126	=126	=126	=126	=126	=126	=126	=126
!	!	!	!	!LO:DY:b	!	!	!	!	!	!	!	!	!	!	!	!	!	!LO:DY:b	!	!LO:DY:b	!	!LO:DY:b	!	!
1B-	.	.	1f	p	2r	.	2r	.	2.B-\	Do-	2.B-\	do-	2.d\	Do-	2.ff\	Do-	1B-	p	1f	p	1dd	p	1ff	.
.	.	.	.	.	2d/	.	2f/	.	.	.	.	.	.	.	.	.	.	.	.	.	.	.	.	.
.	.	.	.	.	.	.	.	.	4B-\	-na	4B-\	-na	4d\	-na	4ff\	-na	.	.	.	.	.	.	.	.
!	!	!	!	!	!	!	!	!	!	!	!LO:LB:g=original	!	!	!	!	!	!	!	!	!	!	!	!	!
=127	=127	=127	=127	=127	=127	=127	=127	=127	=127	=127	=127	=127	=127	=127	=127	=127	=127	=127	=127	=127	=127	=127	=127	=127
1BB-	.	.	1F	.	2r	.	2r	.	2BB-/	no-	2f\	no-	2f\	no-	2dd\	no-	1BB-	.	1B-	.	1b-	.	1dd	.
.	.	.	.	.	2A-/	.	2d/	.	2BB-/	-bis	2f\	-bis	2f\	-bis	2dd\	-biſ	.	.	.	.	.	.	.	.
!LO:LB:g=original	!	!	!	!	!	!	!	!	!	!	!	!	!	!	!	!	!	!	!	!	!	!	!	!
=128	=128	=128	=128	=128	=128	=128	=128	=128	=128	=128	=128	=128	=128	=128	=128	=128	=128	=128	=128	=128	=128	=128	=128	=128
2E-\	.	.	2B-/	.	2G/	.	2e-/	.	2E-\	pa-	2B-\	pa-	2g\	pa-	2ee-\	pa-	2G/	.	2e-\	.	2b-\	.	2ee-\	.
2E-\	.	.	2B-/	.	2G/	.	2e-/	.	2E-\	-cem	2B-\	-cem	2g\	-cem	2ee-\	-cem	2G/	.	2e-\	.	2b-\	.	2ee-\	.
!	!	!	!	!	!	!	!	!	!	!	!	!	!	!	!	!	!	!	!LO:LB:g=original	!	!	!	!	!
=129	=129	=129	=129	=129	=129	=129	=129	=129	=129	=129	=129	=129	=129	=129	=129	=129	=129	=129	=129	=129	=129	=129	=129	=129
!	!	!	!LO:TX:a:t=5	!	!	!	!	!	!	!	!	!	!	!	!	!	!	!	!	!	!LO:TX:a:t=5	!	!LO:TX:a:t=5	!
2E-\	.	.	00r	.	2r	.	2r	.	00r	.	00r	.	00r	.	00r	.	2G/	.	2e-\	.	00r	.	00r	.
2r	.	.	.	.	4ee-\	.	4gg|>\	.	.	.	.	.	.	.	.	.	2r	.	2r	.	.	.	.	.
.	.	.	.	.	4ee-\	.	4gg|>\	.	.	.	.	.	.	.	.	.	.	.	.	.	.	.	.	.
=130	=130	=130	=130	=130	=130	=130	=130	=130	=130	=130	=130	=130	=130	=130	=130	=130	=130	=130	=130	=130	=130	=130	=130	=130
0r	.	.	.	.	4dd\	.	4ff|>\	.	.	.	.	.	.	.	.	.	00r	.	00r	.	.	.	.	.
.	.	.	.	.	4dd\	.	4ff|>\	.	.	.	.	.	.	.	.	.	.	.	.	.	.	.	.	.
.	.	.	.	.	4cc\	.	4ee-|>\	.	.	.	.	.	.	.	.	.	.	.	.	.	.	.	.	.
.	.	.	.	.	4cc\	.	4ee-|>\	.	.	.	.	.	.	.	.	.	.	.	.	.	.	.	.	.
=131	=131	=131	=131	=131	=131	=131	=131	=131	=131	=131	=131	=131	=131	=131	=131	=131	=131	=131	=131	=131	=131	=131	=131	=131
.	.	.	.	.	4b-\	.	4dd|>\	.	.	.	.	.	.	.	.	.	.	.	.	.	.	.	.	.
.	.	.	.	.	4b-\	.	4dd|>\	.	.	.	.	.	.	.	.	.	.	.	.	.	.	.	.	.
.	.	.	.	.	4a-/	.	4cc|>\	.	.	.	.	.	.	.	.	.	.	.	.	.	.	.	.	.
.	.	.	.	.	4a-/	.	4cc|>\	.	.	.	.	.	.	.	.	.	.	.	.	.	.	.	.	.
=132	=132	=132	=132	=132	=132	=132	=132	=132	=132	=132	=132	=132	=132	=132	=132	=132	=132	=132	=132	=132	=132	=132	=132	=132
1BB-	8 6	.	.	.	4g/	.	4b-|>\	.	.	.	.	.	.	.	.	.	.	.	.	.	.	.	.	.
.	.	.	.	.	4g/	.	4b-|>\	.	.	.	.	.	.	.	.	.	.	.	.	.	.	.	.	.
.	7 5	.	.	.	4f/	.	4a-|>\	.	.	.	.	.	.	.	.	.	.	.	.	.	.	.	.	.
.	.	.	.	.	4f/	.	4a-|>\	.	.	.	.	.	.	.	.	.	.	.	.	.	.	.	.	.
=133	=133	=133	=133	=133	=133	=133	=133	=133	=133	=133	=133	=133	=133	=133	=133	=133	=133	=133	=133	=133	=133	=133	=133	=133
2E-\	.	.	1r	.	4e-/	.	4g|</	.	1r	.	1r	.	1r	.	1r	.	.	.	.	.	1r	.	1r	.
.	.	.	.	.	4e-/	.	4g|</	.	.	.	.	.	.	.	.	.	.	.	.	.	.	.	.	.
2G\	6	.	.	.	4G/	.	4e-|</	.	.	.	.	.	.	.	.	.	.	.	.	.	.	.	.	.
.	.	.	.	.	4G/	.	4e-|</	.	.	.	.	.	.	.	.	.	.	.	.	.	.	.	.	.
=134	=134	=134	=134	=134	=134	=134	=134	=134	=134	=134	=134	=134	=134	=134	=134	=134	=134	=134	=134	=134	=134	=134	=134	=134
*	*	*	*	*	*	*	*	*	*	*	*	*	*	*	*	*ij	*	*	*	*	*	*	*	*
!	!	!	!	!LO:DY:b	!	!	!	!	!	!	!	!	!LO:TX:a:t=d	!	!	!	!LO:N:vis=2	!	!	!LO:DY:b	!	!LO:DY:b	!	!
1B-	.	.	1f	p	2r	.	2r	.	2.B-\	Do-	2.B-\	do-	2.d\	do-	2.ff\	Do-	1B-	.	1f	p	1dd	p	1ff	.
.	.	.	.	.	2d/	.	2f/	.	.	.	.	.	.	.	.	.	.	.	.	.	.	.	.	.
.	.	.	.	.	.	.	.	.	4B-\	-na	4B-\	-na	4d\	-na	4ff\	-na	.	.	.	.	.	.	.	.
!	!	!	!	!	!	!	!	!	!LO:LB:g=original	!	!	!	!LO:LB:g=original	!	!	!	!	!	!	!	!	!	!	!
=135	=135	=135	=135	=135	=135	=135	=135	=135	=135	=135	=135	=135	=135	=135	=135	=135	=135	=135	=135	=135	=135	=135	=135	=135
1BB-	7	.	1F	.	2r	.	2r	.	2BB-/	no-	2f\	no-	2f\	no-	2dd\	no-	1BB-	.	1B-	.	1b-	.	1dd	.
.	.	.	.	.	2A-/	.	2d/	.	2BB-/	-bis	2f\	-bis	2f\	-bis	2dd\	-biſ	.	.	.	.	.	.	.	.
!	!	!	!	!	!LO:LB:g=original	!	!LO:LB:g=original	!	!	!	!	!	!	!	!	!	!	!	!	!	!	!	!	!
=136	=136	=136	=136	=136	=136	=136	=136	=136	=136	=136	=136	=136	=136	=136	=136	=136	=136	=136	=136	=136	=136	=136	=136	=136
2E-\	.	.	2B-/	.	2G/	.	2e-/	.	2E-\	pa-	2B-\	pa-	2g\	pa-	2ee-\	pa-	2G/	.	2e-\	.	2b-\	.	2ee-\	.
2E-\	.	.	2B-/	.	2G/	.	2e-/	.	2E-\	-cem	2B-\	-cem	2g\	-cem	2ee-\	-cem	2G/	.	2e-\	.	2b-\	.	2ee-\	.
*	*	*	*	*	*	*	*	*	*	*	*	*	*	*	*	*Xij	*	*	*	*	*	*	*	*
!	!	!	!	!	!	!	!	!	!	!	!	!	!	!	!	!	!	!	!	!	!	!	!LO:LB:g=original	!
=137	=137	=137	=137	=137	=137	=137	=137	=137	=137	=137	=137	=137	=137	=137	=137	=137	=137	=137	=137	=137	=137	=137	=137	=137
!LO:TX:a:i:t=Tutti	!	!	!	!	!	!	!	!	!	!	!	!	!	!	!	!	!	!	!	!	!	!	!	!
2r	.	.	2r	.	2r	.	2r	.	2r	.	2r	.	2r	.	2r	.	2r	.	2r	.	2r	.	2r	.
!	!	!	!	!	!	!	!	!LO:DY:b:t=f.:rj	!	!	!	!	!	!	!	!	!	!	!	!	!LO:N:vis=2.	!LO:DY:b:t=f.:rj	!	!LO:DY:b:rj
2BB-/	.	.	4B-/	.	4B-/	.	4B-/	f	4BB-/	do-	4B-\	do-	4b-\	do-	4b-\	do-	2BB-/	.	2B-/	.	2B-/	f	2b-\	f
.	.	.	4B-/	.	4B-/	.	4B-/	.	4BB-/	-na	4B-\	-na	4b-\	-na	4b-\	-na	.	.	.	.	.	.	.	.
!	!	!	!LO:LB:g=original	!	!	!	!	!	!	!	!	!	!	!	!	!	!	!	!	!	!LO:LB:g=original	!	!	!
=138	=138	=138	=138	=138	=138	=138	=138	=138	=138	=138	=138	=138	=138	=138	=138	=138	=138	=138	=138	=138	=138	=138	=138	=138
2E-|>\	.	.	4e-\	.	2e-/	.	2e-/	.	2E-\	no-	2g\	no-	2b-\	no-	2ee-\	no-	1G	.	2e-\	.	2e-/	.	2ee-\	.
.	.	.	4e-\	.	.	.	.	.	.	.	.	.	.	.	.	.	.	.	.	.	.	.	.	.
!	!	!	!	!	!	!	!	!	!	!	!	!	!	!	!	!	!	!	!	!	!LO:N:vis=2.	!	!	!
2e-|>\	.	.	4ee-\	.	2B-/ 2g	.	2e-/ 2ee-	.	4e-\	-bis	4g\	-bis	4b-\	-bis	4ee-\	-biſ	.	.	2e-\	.	2b-/	.	2gg\	.
.	.	.	4ee-\	.	.	.	.	.	4e-\	pa-	4g\	pa-	4b-\	pa-	4ee-\	.	.	.	.	.	.	.	.	.
!	!	!	!	!	!	!	!	!	!	!	!LO:LB:g=original	!	!	!	!	!	!	!	!	!	!	!	!	!
=139	=139	=139	=139	=139	=139	=139	=139	=139	=139	=139	=139	=139	=139	=139	=139	=139	=139	=139	=139	=139	=139	=139	=139	=139
!	!	!	!	!	!	!	!	!	!	!	!	!	!	!	!	!	!LO:TX:t=P:problem=t. 139 zapisany jako repetycja	!	!	!	!	!	!	!
2B-|>\	.	.	4b-\	.	2B-/ 2g	.	2e-/ 2ee-	.	2B-\	-cem	2g\	-cem	2b-\	-cem	2ee-\	pa-	1G	.	2e-\	.	2ee-\	.	2gg\	.
.	.	.	4b-\	.	.	.	.	.	.	.	.	.	.	.	.	.	.	.	.	.	.	.	.	.
2G|>\	.	.	4g\	.	2B-/ 2g	.	2e-/ 2ee-	.	2G\	pa-	2g\	pa-	2b-\	pa-	2ee-\	-ce(m)	.	.	2e-\	.	2ee-\	.	2gg\	.
.	.	.	4g\	.	.	.	.	.	.	.	.	.	.	.	.	.	.	.	.	.	.	.	.	.
=140	=140	=140	=140	=140	=140	=140	=140	=140	=140	=140	=140	=140	=140	=140	=140	=140	=140	=140	=140	=140	=140	=140	=140	=140
!	!	!	!	!	!	!	!	!	!	!	!	!	!	!	!	!	!	!	!	!	!LO:TX:b:t=D. S. K.	!	!	!
!	!	!	!LO:TX:b:t=Finis	!	!LO:TX:b:t=Finis	!	!	!	!	!	!LO:TX:b:t=Finis	!	!LO:TX:b:t=Finis	!	!	!	!	!	!	!	!LO:N:vis=2	!	!	!
1E-|>	.	.	1e-	.	1B- 1g	.	1e- 1ee-	.	1E-	-cem,	1g	-cem,	1b-	-cem.	1ee-	pacem,	1G	.	[2e-\	.	1ee-	.	2gg\	.
!	!	!	!	!	!	!	!	!	!	!	!	!	!	!	!	!	!	!	!LO:TX:b:i:t=Finis	!	!	!	!LO:TX:b:t=B. N Finis	!
.	.	.	.	.	.	.	.	.	.	.	.	.	.	.	.	.	.	.	2e-\]	.	.	.	2gg\	.
==	==	==	==	==	==	==	==	==	==	==	==	==	==	==	==	==	==	==	==	==	==	==	==	==
*-	*-	*-	*-	*-	*-	*-	*-	*-	*-	*-	*-	*-	*-	*-	*-	*-	*-	*-	*-	*-	*-	*-	*-	*-
!!!system-decoration: [(s1,s2)][(s3,s4)][(s5,s6,s7,s8)][(s9,s10,s11)][(s12)]
!!!RDF**kern: < = below
!!!RDF**kern: > = above
!!!RDF**kern: | = vertical stroke
!!!ENC: Marcin Jachim
!!!END: 2020-08-23
!!!ENC: Marta Chmielewska
!!!END: 2022-02-08
!!!YEC: Copyright 2022 Narodowy Instytut Fryderyka Chopina (https://polishscores.org)
!!!YEM: License CC-BY-4.0 (https://creativecommons.org/licenses/by/4.0)
